!!!!SEGMENT: pl-kk--kk-i-102--001-002_anonim--missa-de-ascensione-dni-et-in-terra.krn
!!!cenid: 17xx:2641
!!!COM: Anonim
!!!COM-rismID: pe30004985
!!!CDT:
!!!CNT:
!!!OPR: [Missa] De ascensione Dni
!!!OTL: Et in terra
!!!OMV: 002
!!!PDT:
!!!AGN: Sacred; Mass
!!!YEC: Copyright 2022 Narodowy Instytut Fryderyka Chopina (https://polishscores.org)
!!!YEM: License CC-BY-4.0 (https://creativecommons.org/licenses/by/4.0)
!!!SMS-siglum: PL-Kk
!!!SMS-shelfmark: Kk.I.102
!!!SMS-variant:
!!!SMS-altvar:
!!!SMS-shelfwork: 001-002 M
!!!NIFC-rismSourceID: 1001156391
!!!NIFC-rismChildID: 1001156391
!!!NIFC-islandoraID: pl-kk:3251
!!!URL-pdf-islandora: https://repozytorium.nifc.pl/islandora/object/pl-kk:3251/datastream/PDF/view
!!!URL-scan: https://polish.musicsources.pl/pl/lokalizacje/galeria/rekopisy/5739/1 @EN{Scan on Polish Music Sources Website} @PL{Skany w portalu Dziedzictwo Muzyki Polskiej w otwartym dostępie}
!!!IIIF:
!!!ONB-nifc: UWAGA: części Mszy: 1. Kyrie, 2. Et in terra, 3. Sanctus, 4. Agnus Dei. Obsada: SAA2TBBrip. Uwaga: Alto 2do dodać tylko w cz. Agnus. Na dole s. 14 fragment innej Mszy.
!!!AIN: 1 alto 2 bass 1 canto 1 tenor
!!!key:
**kern	**text	**kern	**text	**kern	**text	**kern	**text	**kern	**text
*part5	*part5	*part4	*part4	*part3	*part3	*part2	*part2	*part1	*part1
*staff5	*staff5	*staff4	*staff4	*staff3	*staff3	*staff2	*staff2	*staff1	*staff1
*I"Baſso Ripieno.	*	*I"Baſso.	*	*I"Tenore.	*	*I"Alto.	*	*I"Canto.	*
*I'B.	*	*I'B.	*	*I'T.	*	*I'A.	*	*I'C.	*
*Ibass	*	*Ibass	*	*Itenor	*	*Ialto	*	*Icanto	*
*ICvox	*	*ICvox	*	*ICvox	*	*ICvox	*	*ICvox	*
*clefC4	*	*clefC4	*	*clefC3	*	*clefC2	*	*clefG2	*
*k[b-]	*	*k[b-]	*	*k[b-]	*	*k[b-]	*	*k[b-]	*
*g:	*	*g:	*	*g:	*	*g:	*	*g:	*
*M2/2	*	*M2/2	*	*M2/2	*	*M2/2	*	*M2/2	*
*met(c|)	*	*met(c|)	*	*met(c|)	*	*met(c|)	*	*met(c|)	*
=1	=1	=1	=1	=1	=1	=1	=1	=1	=1
00r	.	00r	.	[1c	Et	00r	.	0r	.
=2	=2	=2	=2	=2	=2	=2	=2	=2	=2
.	.	.	.	2c\]	.	.	.	.	.
!	!	!	!	!LO:TX:t=P:problem:kreska pseudotaktowa	!	!	!	!	!
*	*	*	*	*2\right	*	*	*	*	*
.	.	.	.	2c\	in	.	.	.	.
=3	=3	=3	=3	=3	=3	=3	=3	=3	=3
.	.	.	.	1e-X	ter-	.	.	[1g	Et
=4	=4	=4	=4	=4	=4	=4	=4	=4	=4
!LO:TX:t=P:problem:kreska pseudotaktowa	!	!LO:TX:t=P:problem:kreska pseudotaktowa	!	!LO:TX:t=P:problem:kreska pseudotaktowa	!	!	!	!	!
.	.	.	.	1c	-ra	.	.	2g/]	.
!	!	!	!	!	!	!	!	!LO:TX:t=P:problem:kreska pseudotaktowa	!
*	*	*	*	*	*	*	*	*2\right	*
.	.	.	.	.	.	.	.	2g/	in
=5	=5	=5	=5	=5	=5	=5	=5	=5	=5
!	!	!	!	!LO:TX:t=P:problem:kreska pseudotaktowa	!	!	!	!	!
[1G	Et	[1G	Et	1B-	pax	0r	.	1b-	ter-
=6	=6	=6	=6	=6	=6	=6	=6	=6	=6
!	!	!	!	!	!	!LO:TX:t=P:problem:kreska pseudotaktowa	!	!	!
2G/]	.	2G/]	.	1e-X	ho-	.	.	1g	-ra
!LO:TX:t=P:problem:kreska pseudotaktowa	!	!LO:TX:t=P:problem:kreska pseudotaktowa	!	!	!	!	!	!	!
*	*	*2\right	*	*	*	*	*	*	*
2G/	in	2G/	in	.	.	.	.	.	.
=7	=7	=7	=7	=7	=7	=7	=7	=7	=7
!	!	!	!	!	!	!	!	!LO:TX:t=P:problem:kreska pseudotaktowa	!
1B-	ter-	1B-	ter-	2.d\	.	2r	.	1f	pax
.	.	.	.	.	.	[2f\	Et	.	.
!	!	!	!	!LO:TX:t=P:problem:kreska pseudotaktowa	!	!	!	!	!
.	.	.	.	4c/	.	.	.	.	.
=8	=8	=8	=8	=8	=8	=8	=8	=8	=8
!LO:TX:t=P:problem:kreska pseudotaktowa	!	!LO:TX:t=P:problem:kreska pseudotaktowa	!	!	!	!	!	!	!
1GZ	-ra	1,GZ	-ra	4B-/	.	2f\]	.	1b-	ho-
.	.	.	.	4A/	.	.	.	.	.
!	!	!	!	!	!	!LO:TX:t=P:problem:kreska pseudotaktowa	!	!	!
*	*	*	*	*	*	*2\right	*	*	*
.	.	.	.	[2B-/	-mi-	2f\	in	.	.
=9	=9	=9	=9	=9	=9	=9	=9	=9	=9
!	!	!	!	!	!	!LO:TX:t=P:problem:kreska pseudotaktowa	!	!	!
1F	pax	1F	pax	2B-/]	.	1f	ter-	2cc\	-mi-
!	!	!	!	!LO:TX:t=P:problem:kreska pseudotaktowa	!	!	!	!LO:TX:t=P:problem:kreska pseudotaktowa	!
.	.	.	.	2A/	-ni-	.	.	2cc\	-ni-
=10	=10	=10	=10	=10	=10	=10	=10	=10	=10
!	!	!LO:TX:t=P:problem:kreska pseudotaktowa	!	!	!	!	!	!	!
1B-	ho-	1B-	ho-	2,B-Z/	-bus	1d	-ra	2dd\	-b(us)
!	!	!	!	!	!	!	!	!LO:TX:t=P:problem:kreska pseudotaktowa	!
.	.	.	.	[2f\	bo-	.	.	2b-\	bo-
=11	=11	=11	=11	=11	=11	=11	=11	=11	=11
!	!	!	!	!	!	!LO:TX:t=P:problem:kreska pseudotaktowa	!	!	!
2c\	-mi-	2c\	-mi-	4f\]	.	1c	pax	4a/	.
.	.	.	.	4e\	.	.	.	4g/	.
!LO:TX:t=P:problem:kreska pseudotaktowa	!	!	!	!LO:TX:t=P:problem:kreska pseudotaktowa	!	!	!	!	!
2c\	-ni-	2c\	-ni-	2e\	-nae	.	.	4cc\	.
!	!	!	!	!	!	!	!	!LO:TX:t=P:problem:kreska pseudotaktowa	!
.	.	.	.	.	.	.	.	4b-\	.
!	!	!	!	!	!	!	!	!LO:LB:g=original	!
=12	=12	=12	=12	=12	=12	=12	=12	=12	=12
!	!	!LO:TX:t=P:problem:kreska pseudotaktowa	!	!	!	!LO:TX:t=P:problem:kreska pseudotaktowa	!	!	!
1,dZ	-b(us)	1,d	-b(us)	2,fZ\	.	1f	ho-	4a/	.
.	.	.	.	.	.	.	.	4g/	.
.	.	.	.	[2a\	Vo-	.	.	4f/	.
!	!	!	!	!	!	!	!	!LO:TX:t=P:problem:kreska pseudotaktowa	!
.	.	.	.	.	.	.	.	4e/	.
=13	=13	=13	=13	=13	=13	=13	=13	=13	=13
1B-	bo-	1B-	bo-	2a\]	.	2f\	-mi-	2d/	-nae
!	!	!	!	!LO:TX:t=P:problem:kreska pseudotaktowa	!	!LO:TX:t=P:problem:kreska pseudotaktowa	!	!	!
.	.	.	.	2g\	-lun-	2g\	-ni-	[2dd\	vo-
=14	=14	=14	=14	=14	=14	=14	=14	=14	=14
!LO:TX:t=P:problem:kreska pseudotaktowa	!	!LO:TX:t=P:problem:kreska pseudotaktowa	!	!	!	!	!	!	!
1AZ	-nae	1,AZ	-nae	2f\	-ta-	2a\	-bus	2dd\]	.
!	!	!	!	!	!	!	!	!LO:TX:t=P:problem:kreska pseudotaktowa	!
.	.	.	.	2e\	.	[2a\	bo-	2cc\	-lun-
=15	=15	=15	=15	=15	=15	=15	=15	=15	=15
1d	Vo-	1d	Vo-	4f\	.	2a\]	.	4dd\	-ta-
.	.	.	.	4g\	.	.	.	4ee\	.
!	!	!	!	!	!	!LO:TX:t=P:problem:kreska pseudotaktowa	!	!	!
.	.	.	.	4a\	.	2,fZ\	-nae	4ff\	.
!	!	!	!	!LO:TX:t=P:problem:kreska pseudotaktowa	!	!	!	!LO:TX:t=P:problem:kreska pseudotaktowa	!
.	.	.	.	4f\	.	.	.	4dd\	.
=16	=16	=16	=16	=16	=16	=16	=16	=16	=16
!LO:TX:t=P:problem:kreska pseudotaktowa	!	!LO:TX:t=P:problem:kreska pseudotaktowa	!	!	!	!	!	!	!
1G	-lun-	1G	-lun-	2.g\	.	2b-\	Vo-	4ee\	.
.	.	.	.	.	.	.	.	4dd\	.
.	.	.	.	.	.	2b-\	-lun-	[2dd\	.
.	.	.	.	4f\	.	.	.	.	.
!LO:LB:g=original	!	!	!	!	!	!	!	!	!
=17	=17	=17	=17	=17	=17	=17	=17	=17	=17
!	!	!	!	!LO:TX:t=P:problem:kreska pseudotaktowa	!	!LO:TX:t=P:problem:kreska pseudotaktowa	!	!	!
2.A/	-ta-	2.A/	-ta-	1e	.	1a	-ta-	2dd\]	.
!	!	!	!	!	!	!	!	!LO:TX:t=P:problem:kreska pseudotaktowa	!
.	.	.	.	.	.	.	.	2cc\	.
4G/	.	4G/	.	.	.	.	.	.	.
!	!	!	!	!LO:LB:g=original	!	!	!	!	!
*	*	*	*	*custos:d	*	*	*	*	*
=18	=18	=18	=18	=18	=18	=18	=18	=18	=18
2F#X/	.	2F#X/	.	0d	-tis	2,aZ\	-tis	2dd\	.
!LO:TX:t=P:problem:kreska pseudotaktowa	!	!LO:TX:t=P:problem:kreska pseudotaktowa	!	!	!	!LO:TX:t=P:problem:kreska pseudotaktowa	!	!	!
2G/	.	2G/	.	.	.	2g\	Lau-	2b-\	.
=19	=19	=19	=19	=19	=19	=19	=19	=19	=19
!LO:TX:t=P:problem:kreska pseudotaktowa	!	!LO:TX:t=P:problem:kreska pseudotaktowa	!	!LO:TX:t=P:problem:kreska pseudotaktowa	!	!	!	!	!
*	*	*	*	*	*	*	*	*lig	*
1DZ	-tis	1,DZ	-tis.	.	.	2g\	-da-	1a	-tis
!	!	!	!	!	!	!LO:TX:t=P:problem:kreska pseudotaktowa	!	!	!
.	.	.	.	.	.	2f\	-m(us)	.	.
=20	=20	=20	=20	=20	=20	=20	=20	=20	=20
*	*	*	*	*	*	*	*	*Xlig	*
!	!	!	!	!	!	!	!	!LO:TX:t=P:problem:kreska pseudotaktowa	!
2r	.	2r	.	2r	.	2.b-\	Te	1g	.
!	!	!	!	!LO:TX:t=P:problem:kreska pseudotaktowa	!	!	!	!	!
2G/	Lau-	2G/	Lau-	2d\	Lau-	.	.	.	.
.	.	.	.	.	.	4cc\	.	.	.
=21	=21	=21	=21	=21	=21	=21	=21	=21	=21
2G/	-da-	2G/	-da-	2e\	-da-	2b-\	.	00r	.
!LO:TX:t=P:problem:kreska pseudotaktowa	!	!LO:TX:t=P:problem:kreska pseudotaktowa	!	!LO:TX:t=P:problem:kreska pseudotaktowa	!	!	!	!	!
2F/	-m(us)	2F/	-m(us)	2f\	-m(us)	[2a\	.	.	.
=22	=22	=22	=22	=22	=22	=22	=22	=22	=22
2.B-\	Te	2.B-\	Te	2.d\	Te	4a\]	.	.	.
.	.	.	.	.	.	4g\	.	.	.
.	.	.	.	.	.	[2g\	.	.	.
!	!	!LO:TX:t=P:problem:kreska pseudotaktowa	!	!LO:TX:t=P:problem:kreska pseudotaktowa	!	!	!	!	!
4c\	.	4c\	.	4e\	.	.	.	.	.
=23	=23	=23	=23	=23	=23	=23	=23	=23	=23
2B-\	.	2B-\	.	2d\	.	2g\]	.	.	.
!	!	!	!	!LO:TX:t=P:problem:kreska pseudotaktowa	!	!	!	!	!
!	!	!	!	!	!	!LO:TX:t=P:problem:kreska pseudotaktowa	!	!	!
2A/	.	2A\	.	2c\	.	2f\	.	.	.
*	*	*	*	*	*	*custos:g	*	*	*
!	!	!	!	!	!	!LO:LB:g=original	!	!	!
=24	=24	=24	=24	=24	=24	=24	=24	=24	=24
!LO:TX:t=P:problem:kreska pseudotaktowa	!	!	!	!	!	!	!	!	!
1G	.	1G	.	2,dZ\	.	2,gZ\	.	.	.
.	.	.	.	[2g\	be-	[2b-\	be-	.	.
!	!	!LO:LB:g=original	!	!	!	!	!	!	!
=25	=25	=25	=25	=25	=25	=25	=25	=25	=25
0r	.	0r	.	2g\]	.	2b-\]	.	[1dd	be-
!	!	!	!	!LO:TX:t=P:problem:kreska pseudotaktowa	!	!LO:TX:t=P:problem:kreska pseudotaktowa	!	!	!
.	.	.	.	2f\	-ne-	2a\	-ne-	.	.
=26	=26	=26	=26	=26	=26	=26	=26	=26	=26
!LO:TX:t=P:problem:kreska pseudotaktowa	!	!LO:TX:t=P:problem:kreska pseudotaktowa	!	!	!	!	!	!	!
.	.	.	.	2g\	-di-	2b-\	-di-	2dd\]	.
!	!	!	!	!LO:TX:t=P:problem:kreska pseudotaktowa	!	!LO:TX:t=P:problem:kreska pseudotaktowa	!	!LO:TX:t=P:problem:kreska pseudotaktowa	!
.	.	.	.	2e-X\	-ci-	2g\	-ci-	2cc\	-ne-
=27	=27	=27	=27	=27	=27	=27	=27	=27	=27
2r	.	2r	.	2d\	-mus	2a\	-m(us)	2ff\	-di-
!	!	!	!	!LO:TX:t=P:problem:kreska pseudotaktowa	!	!LO:TX:t=P:problem:kreska pseudotaktowa	!	!LO:TX:t=P:problem:kreska pseudotaktowa	!
[2d\	be-	[2d\	be-	2G/	.	2b-\	Te	2gg\	-ci-
=28	=28	=28	=28	=28	=28	=28	=28	=28	=28
!	!	!	!	!LO:TX:t=P:problem:kreska pseudotaktowa	!	!	!	!	!
2d\]	.	2d\]	.	1A	TE	2.a\	.	2ff\	-mus
!LO:TX:t=P:problem:kreska pseudotaktowa	!	!LO:TX:t=P:problem:kreska pseudotaktowa	!	!	!	!	!	!	!
2c#X\	-ne-	2c#X\	-ne-	.	.	.	.	[2ee\	Te
!	!	!	!	!	!	!LO:TX:t=P:problem:kreska pseudotaktowa	!	!	!
.	.	.	.	.	.	4g\	.	.	.
=29	=29	=29	=29	=29	=29	=29	=29	=29	=29
2d\	-di-	2d\	-di-	0r	.	2f\	.	4ee\]	.
.	.	.	.	.	.	.	.	4dd\	.
2G/	-ci-	2G/	-ci-	.	.	2g\	.	[2dd\	.
=30	=30	=30	=30	=30	=30	=30	=30	=30	=30
!	!	!LO:TX:t=P:problem:kreska pseudotaktowa	!	!	!	!	!	!	!
*	*	*	*	*custos:d	*	*	*	*	*
!	!	!	!	!LO:TX:t=P:problem:kreska pseudotaktowa	!	!LO:TX:t=P:problem:kreska pseudotaktowa	!	!	!
1,AZ	-mus	1A	-mus	.	.	1e	.	2dd\]	.
!	!	!	!	!	!	!	!	!LO:TX:t=P:problem:kreska pseudotaktowa	!
.	.	.	.	.	.	.	.	2cc\	.
!	!	!	!	!LO:LB:g=original	!	!	!	!	!
=31	=31	=31	=31	=31	=31	=31	=31	=31	=31
!LO:TX:t=P:problem:kreska pseudotaktowa	!	!LO:TX:t=P:problem:kreska pseudotaktowa	!	!	!	!	!	!	!
1D	Te	1,DZ	Te	2r	.	2,dZ/	.	2.dd\	.
.	.	.	.	[2d\	a-	[2f\	a-	.	.
.	.	.	.	.	.	.	.	8cc\L	.
!	!	!	!	!	!	!	!	!LO:TX:t=P:problem:kreska pseudotaktowa	!
.	.	.	.	.	.	.	.	8b-\J	.
=32	=32	=32	=32	=32	=32	=32	=32	=32	=32
!	!	!	!	!	!	!	!	!LO:TX:t=P:problem:kreska pseudotaktowa	!
2r	.	2r	.	2d\]	.	2f\]	.	1a	.
!	!	!	!	!LO:TX:t=P:problem:kreska pseudotaktowa	!	!LO:TX:t=P:problem:kreska pseudotaktowa	!	!	!
[2A\	a-	[2A\	a-	2c\	-do-	2e\	-do-	.	.
=33	=33	=33	=33	=33	=33	=33	=33	=33	=33
2A\]	.	2A\]	.	2f\	-ra-	2a\	-ra-	0r	.
!LO:TX:t=P:problem:kreska pseudotaktowa	!	!LO:TX:t=P:problem:kreska pseudotaktowa	!	!LO:TX:t=P:problem:kreska pseudotaktowa	!	!	!	!	!
2G/	-do-	2G/	-do-	[2g\	.	2b-\	-m(us)	.	.
=34	=34	=34	=34	=34	=34	=34	=34	=34	=34
!	!	!	!	!	!	!	!	!LO:TX:t=P:problem:kreska pseudotaktowa	!
2c\	-ra-	2c\	-ra-	2g\]	.	2.a\	Te	.	.
!	!	!LO:TX:t=P:problem:kreska pseudotaktowa	!	!	!	!	!	!	!
2d\	-mus	2d\	-mus	2f\	.	.	.	.	.
.	.	.	.	.	.	8g\L	.	.	.
!	!	!	!	!	!	!LO:TX:t=P:problem:kreska pseudotaktowa	!	!	!
.	.	.	.	.	.	8f\J	.	.	.
!	!	!	!	!	!	!	!	!LO:LB:g=original	!
=35	=35	=35	=35	=35	=35	=35	=35	=35	=35
2,cZ\	Te	2,cZ\	Te	2e\	.	1,gZ	.	2r	.
!LO:TX:t=P:problem:kreska pseudotaktowa	!	!	!	!	!	!	!	!LO:TX:t=P:problem:kreska pseudotaktowa	!
2B-\	glo-	2B-\	glo-	2d\	-m(us)	.	.	2dd\	glo-
=36	=36	=36	=36	=36	=36	=36	=36	=36	=36
!	!	!	!	!LO:TX:t=P:problem:kreska pseudotaktowa	!	!LO:TX:t=P:problem:kreska pseudotaktowa	!	!	!
2A/	-ri-	2A\	-ri-	1e	Te	1a	glo-	2dd\	-ri-
!	!	!LO:TX:t=P:problem:kreska pseudotaktowa	!	!	!	!	!	!	!
2A/	-fi-	2A\	-fi-	.	.	.	.	2cc\	-fi-
=37	=37	=37	=37	=37	=37	=37	=37	=37	=37
2d\	-ca-	2d\	-ca-	2r	.	2a\	-ri-	2ff\	-ca-
!	!	!LO:TX:t=P:problem:kreska pseudotaktowa	!	!	!	!	!	!LO:TX:t=P:problem:kreska pseudotaktowa	!
2G/	.	2G/	.	2d\	glo-	2b-\	-fi-	2gg\	.
=38	=38	=38	=38	=38	=38	=38	=38	=38	=38
!LO:TX:t=P:problem:kreska pseudotaktowa	!	!	!	!	!	!	!	!	!
1A	.	1A	.	2d\	-ri-	1a	-ca-	2ff\	.
!	!	!	!	!LO:TX:t=P:problem:kreska pseudotaktowa	!	!	!	!	!
.	.	.	.	2c/	-fi-	.	.	[2ee\	.
=39	=39	=39	=39	=39	=39	=39	=39	=39	=39
!	!	!	!	!	!	!LO:TX:t=P:problem:kreska pseudotaktowa	!	!	!
2B-\	.	2B-\	.	2f\	-ca-	1d	-m(us)	4ee\]	.
.	.	.	.	.	.	.	.	4dd\	.
!LO:TX:t=P:problem:kreska pseudotaktowa	!	!LO:TX:t=P:problem:kreska pseudotaktowa	!	!	!	!	!	!	!
2,GZ/	-mus	2,GZ/	-mus	2g\	-m(us)	.	.	[2dd\	.
=40	=40	=40	=40	=40	=40	=40	=40	=40	=40
!LO:TX:t=P:problem:kreska pseudotaktowa	!	!	!	!	!	!	!	!	!
!LO:TX:t=P:problem:kreska pseudotaktowa	!	!LO:TX:t=P:problem:kreska pseudotaktowa	!	!	!	!	!	!	!
*	*	*	*	*lig	*	*	*	*	*
1AZ	Te.	1,AZ	Te.	1e	Te	2.a\	Te	2dd\]	.
.	.	.	.	.	.	.	.	2cc#X\	-m(us)
.	.	.	.	.	.	4g\	.	.	.
=41	=41	=41	=41	=41	=41	=41	=41	=41	=41
*	*	*	*	*Xlig	*	*	*	*	*
!	!	!	!	!LO:TX:t=P:problem:kreska pseudotaktowa	!	!	!	!LO:TX:t=P:problem:kreska pseudotaktowa	!
2r	.	2r	.	1d	.	2,f#XZ\	.	1dd	Te
[2G/	Gra-	[2G/	Gra-	.	.	[2g\	Gra-	.	.
=42	=42	=42	=42	=42	=42	=42	=42	=42	=42
2G/]	.	2G/]	.	[1Bn	Gra-	2g\]	.	2r	.
!	!	!	!	!	!	!LO:TX:t=P:problem:kreska pseudotaktowa	!	!	!
2G/	-ti-	2G/	-ti-	.	.	2g\	-ti-	[2dd\	Gra-
=43	=43	=43	=43	=43	=43	=43	=43	=43	=43
!LO:TX:t=P:problem:kreska pseudotaktowa	!	!LO:TX:t=P:problem:kreska pseudotaktowa	!	!	!	!	!	!	!
1G	-as	1G	-as	2B/]	.	0,g	-as	2dd\]	.
.	.	.	.	2Bn/	-ti-	.	.	2dd\	-ti-
!LO:LB:g=original	!	!	!	!	!	!LO:PB:g=original	!	!	!
=44	=44	=44	=44	=44	=44	=44	=44	=44	=44
!	!	!	!	!LO:TX:t=P:problem:kreska pseudotaktowa	!	!LO:TX:t=P:problem:kreska pseudotaktowa	!	!LO:TX:t=P:problem:kreska pseudotaktowa	!
2r	.	2r	.	1c	-as	.	.	1ee-X	-as
[2c\	a-	[2c\	a-	.	.	.	.	.	.
=45	=45	=45	=45	=45	=45	=45	=45	=45	=45
2c\]	.	2c\]	.	2G/	a-	1g	a-	2dd\	a-
!LO:TX:t=P:problem:kreska pseudotaktowa	!	!	!	!	!	!	!	!	!
*	*	*custos:c	*	*	*	*	*	*	*
!	!	!LO:TX:t=P:problem:kreska pseudotaktowa	!	!	!	!	!	!LO:TX:t=P:problem:kreska pseudotaktowa	!
2Bn\	-gi-	2Bn\	-gi-	2G/	-gi-	.	.	2dd\	-gi-
!	!	!LO:LB:g=original	!	!	!	!	!	!	!
=46	=46	=46	=46	=46	=46	=46	=46	=46	=46
!	!	!	!	!	!	!LO:TX:t=P:problem:kreska pseudotaktowa	!	!	!
4c\	-mus	4c\	-mus	2.A/	-m(us)	1e	-gi-	2.cc\	-m(us)
4B-\	.	4B-\	.	.	.	.	.	.	.
4A\	.	4A\	.	.	.	.	.	.	.
!	!	!LO:TX:t=P:problem:kreska pseudotaktowa	!	!	!	!	!	!LO:TX:t=P:problem:kreska pseudotaktowa	!
4G\	.	4G\	.	4B-/	.	.	.	4b-\	.
=47	=47	=47	=47	=47	=47	=47	=47	=47	=47
4F/	.	4F/	.	2c\	Ti-	1,fZ	-mus	2a/	Ti-
4E/	.	4E/	.	.	.	.	.	.	.
!LO:TX:t=P:problem:kreska pseudotaktowa	!	!LO:TX:t=P:problem:kreska pseudotaktowa	!	!LO:TX:t=P:problem:kreska pseudotaktowa:między nutą a kropką	!	!	!	!	!
2D/	.	2D/	.	[2d\	.	.	.	[2b-/	.
=48	=48	=48	=48	=48	=48	=48	=48	=48	=48
*lig	*	*lig	*	*	*	*	*	*	*
!	!	!	!	!	!	!LO:TX:t=P:problem:kreska pseudotaktowa	!	!	!
1F	Ti-	1F	Ti-	4d\]	.	1f	Ti-	4b-/]	.
.	.	.	.	4c/	.	.	.	4a/	.
.	.	.	.	2c/	.	.	.	[2a/	.
=49	=49	=49	=49	=49	=49	=49	=49	=49	=49
*Xlig	*	*Xlig	*	*	*	*	*	*	*
1G	.	1G	.	1B-	.	2.d/	.	2a/]	.
!	!	!	!	!	!	!	!	!LO:TX:t=P:problem:kreska pseudotaktowa	!
.	.	.	.	.	.	.	.	2g/	.
!	!	!	!	!	!	!LO:TX:t=P:problem:kreska pseudotaktowa	!	!	!
.	.	.	.	.	.	4e/	.	.	.
=50	=50	=50	=50	=50	=50	=50	=50	=50	=50
0D	-bi	0,D	-bi	0.A	-bi	2,fZ\	-bi	2a,Z/	-bi
.	.	.	.	.	.	[2d/	pro-	[2f/	pro-
=51	=51	=51	=51	=51	=51	=51	=51	=51	=51
!LO:TX:t=P:problem:kreska pseudotaktowa	!	!LO:TX:t=P:problem:kreska pseudotaktowa	!	!	!	!	!	!	!
.	.	.	.	.	.	2d/]	.	2f/]	.
!	!	!	!	!	!	!LO:TX:t=P:problem:kreska pseudotaktowa	!	!LO:TX:t=P:problem:kreska pseudotaktowa	!
.	.	.	.	.	.	2f\	-pter	2a/	-pter
=52	=52	=52	=52	=52	=52	=52	=52	=52	=52
!	!	!LO:TX:t=P:problem:kreska pseudotaktowa	!	!LO:TX:t=P:problem:kreska pseudotaktowa	!	!	!	!	!
1r	.	1r	.	.	.	1e	mag-	1cc	ma-
=53	=53	=53	=53	=53	=53	=53	=53	=53	=53
!	!	!	!	!	!	!	!	!LO:TX:t=P:problem:kreska pseudotaktowa	!
[1D	pro-	[1D	pro-	2r	.	0d	-n(am)	1dd	-gn(am)
.	.	.	.	[2F/	pro-	.	.	.	.
=54	=54	=54	=54	=54	=54	=54	=54	=54	=54
!	!	!	!	!	!	!LO:TX:t=P:problem:kreska pseudotaktowa	!	!	!
2D/]	.	2D/]	.	2F/]	.	.	.	2b-/	glo-
!LO:TX:t=P:problem:kreska pseudotaktowa	!	!LO:TX:t=P:problem:kreska pseudotaktowa	!	!LO:TX:t=P:problem:kreska pseudotaktowa	!	!	!	!	!
2F/	-pter	2F/	-pter	2A/	-pter	.	.	2a/	.
!	!	!	!	!LO:LB:g=original	!	!	!	!	!
=55	=55	=55	=55	=55	=55	=55	=55	=55	=55
!	!	!LO:TX:t=P:problem:kreska pseudotaktowa	!	!	!	!	!	!	!
1E	mag-	1E	mag-	1c	mag-	1G	glo-	[1g	.
=56	=56	=56	=56	=56	=56	=56	=56	=56	=56
!LO:TX:t=P:problem:kreska pseudotaktowa	!	!LO:TX:t=P:problem:kreska pseudotaktowa	!	!LO:TX:t=P:problem:kreska pseudotaktowa	!	!	!	!	!
1DZ	-nam	1,DZ	-nam	1d	-nam	2A/	-ri-	2g/]	.
!	!	!	!	!	!	!LO:TX:t=P:problem:kreska pseudotaktowa	!	!LO:TX:t=P:problem:kreska pseudotaktowa	!
.	.	.	.	.	.	2d/	-am	2f#X/	-ri-
=57	=57	=57	=57	=57	=57	=57	=57	=57	=57
2G/	glo-	2G/	glo-	2B-/	glo-	0.d	tu-	2g/	-am-
!	!	!LO:TX:t=P:problem:kreska pseudotaktowa	!	!	!	!	!	!	!
2F#X/	-ri-	2F#X/	-ri-	2A/	-ri-	.	.	[2a/	-Tu-
=58	=58	=58	=58	=58	=58	=58	=58	=58	=58
!LO:TX:t=P:problem:kreska pseudotaktowa	!	!LO:TX:t=P:problem:kreska pseudotaktowa	!	!	!	!	!	!	!
1,GZ	-am	1,GZ	-am	1B-	-am	.	.	4a/]	.
.	.	.	.	.	.	.	.	4g/	.
.	.	.	.	.	.	.	.	[2g/	.
=59	=59	=59	=59	=59	=59	=59	=59	=59	=59
!	!	!	!	!LO:TX:t=P:problem:kreska pseudotaktowa	!	!	!	!	!
1D	tu-	1D	tu-	1A	tu-	.	.	2g/]	.
!	!	!	!	!	!	!	!	!LO:TX:t=P:problem:kreska pseudotaktowa	!
.	.	.	.	.	.	.	.	2f/	.
=60	=60	=60	=60	=60	=60	=60	=60	=60	=60
!LO:TX:t=P:problem:kreska pseudotaktowa	!	!LO:TX:t=P:problem:kreska pseudotaktowa	!	!	!	!LO:TX:t=P:problem:kreska pseudotaktowa	!	!LO:TX:t=P:problem:kreska pseudotaktowa	!
1,GZ	-am	1,GZ	-am	2,GZ/	-am	1d	-am	1g	-am
.	.	.	.	[2G/	Do-	.	.	.	.
!	!	!	!	!	!	!	!	!LO:PB:g=original	!
=61	=61	=61	=61	=61	=61	=61	=61	=61	=61
00r	.	00r	.	4G/]	.	2r	.	2r	.
.	.	.	.	4G/	-mi-	.	.	.	.
!	!	!	!	!LO:TX:t=P:problem:kreska pseudotaktowa	!	!	!	!	!
.	.	.	.	2G/	-ne	[2d/	Do-	[2g/	Do-
=62	=62	=62	=62	=62	=62	=62	=62	=62	=62
.	.	.	.	2B-/	De-	4d/]	.	4g/]	.
.	.	.	.	.	.	4d/	-mi-	4g/	-mi-
!	!	!	!	!	!	!LO:TX:t=P:problem:kreska pseudotaktowa	!	!LO:TX:t=P:problem:kreska pseudotaktowa	!
.	.	.	.	2c\	-(us)	2e\	-ne	2g/	-ne
=63	=63	=63	=63	=63	=63	=63	=63	=63	=63
.	.	.	.	2d\	Rex	2f\	De-	2b-\	De-
!	!	!	!	!LO:TX:t=P:problem:kreska pseudotaktowa	!	!LO:TX:t=P:problem:kreska pseudotaktowa	!	!	!
.	.	.	.	2e\	.	2g\	-us	2cc\	-us
=64	=64	=64	=64	=64	=64	=64	=64	=64	=64
!	!	!	!	!	!	!	!	!LO:TX:t=P:problem:kreska pseudotaktowa	!
.	.	.	.	2f\	Cae-	2a\	Rex	1dd	Rex
.	.	.	.	[2g\	-le-	[2b-\	.	.	.
=65	=65	=65	=65	=65	=65	=65	=65	=65	=65
0r	.	0r	.	2g\]	.	2b-\]	.	2ee\	cae-
.	.	.	.	4f\	.	4a\	cae-	[2ff\	-le-
!	!	!	!	!LO:TX:t=P:problem:kreska pseudotaktowa	!	!LO:TX:t=P:problem:kreska pseudotaktowa	!	!	!
.	.	.	.	4e\	.	4g\	.	.	.
=66	=66	=66	=66	=66	=66	=66	=66	=66	=66
.	.	.	.	4d\	.	1a	-le-	4ff\]	.
.	.	.	.	4e\	.	.	.	4ee\	.
.	.	.	.	4f\	.	.	.	[2dd\	.
.	.	.	.	4d\	.	.	.	.	.
=67	=67	=67	=67	=67	=67	=67	=67	=67	=67
!LO:TX:t=P:problem:kreska pseudotaktowa	!	!	!	!	!	!	!	!	!
!	!	!LO:TX:t=P:problem:kreska pseudotaktowa	!	!	!	!	!	!	!
1r	.	1r	.	1e	.	1g	.	2dd\]	.
!	!	!	!	!	!	!	!	!LO:TX:t=P:problem:kreska pseudotaktowa	!
.	.	.	.	.	.	.	.	2cc\	.
!	!	!LO:PB:g=original	!	!	!	!	!	!	!
*	*	*custos:D	*	*	*	*	*	*	*
=68	=68	=68	=68	=68	=68	=68	=68	=68	=68
!	!	!	!	!LO:TX:t=P:problem:kreska pseudotaktowa	!	!LO:TX:t=P:problem:kreska pseudotaktowa	!	!	!
2r	.	2r	.	1d	-stis	1a	-stis	0dd	-stis
[2D/	De-	[2D/	De-	.	.	.	.	.	.
!	!	!	!	!	!	!LO:LB:g=original	!	!	!
=69	=69	=69	=69	=69	=69	=69	=69	=69	=69
!	!	!	!	!	!	!	!	!LO:TX:t=P:problem:kreska pseudotaktowa	!
2D/]	.	2D/]	.	2r	.	2r	.	.	.
!LO:TX:t=P:problem:kreska pseudotaktowa	!	!LO:TX:t=P:problem:kreska pseudotaktowa	!	!	!	!	!	!	!
2D/	-us	2D/	-us	[2A/	De-	[2d/	De-	.	.
=70	=70	=70	=70	=70	=70	=70	=70	=70	=70
2F/	Pa-	2F/	Pa-	2A/]	.	2d/]	.	0r	.
!LO:TX:t=P:problem:kreska pseudotaktowa	!	!LO:TX:t=P:problem:kreska pseudotaktowa	!	!LO:TX:t=P:problem:kreska pseudotaktowa	!	!LO:TX:t=P:problem:kreska pseudotaktowa	!	!	!
2,GZ/	-ter	2G/	-ter	2B-/	-us	2d/	-us	.	.
=71	=71	=71	=71	=71	=71	=71	=71	=71	=71
2A\	O-	2A\	O-	2c\	Pa-	2f\	Pa-	.	.
!	!	!LO:TX:t=P:problem:kreska pseudotaktowa	!	!	!	!LO:TX:t=P:problem:kreska pseudotaktowa	!	!	!
2B-\	.	2B-\	.	2d\	-ter	2g\	-ter	.	.
=72	=72	=72	=72	=72	=72	=72	=72	=72	=72
2c\	.	2c\	.	2e\	O-	2a\	O-	2r	.
!	!	!	!	!	!	!LO:TX:t=P:problem:kreska pseudotaktowa	!	!LO:TX:t=P:problem:kreska pseudotaktowa	!
[2d\	.	[2d\	.	[2f\	-mni-	2b-\	.	2d/	De-
=73	=73	=73	=73	=73	=73	=73	=73	=73	=73
4d\]	.	4d\]	.	4f\]	.	2a\	.	2f/	-us
4c\	.	4c\	.	4e\	.	.	.	.	.
!	!	!LO:TX:t=P:problem:kreska pseudotaktowa	!	!	!	!	!	!LO:TX:t=P:problem:kreska pseudotaktowa	!
2B-\	.	2B-\	.	2d\	.	[2g\	.	2g/	Pa-
=74	=74	=74	=74	=74	=74	=74	=74	=74	=74
!	!	!	!	!LO:TX:t=P:problem:kreska pseudotaktowa	!	!	!	!	!
2.A/	-mni-	2.A\	-mni-	1c	-po-	4g\]	.	2a/	.
.	.	.	.	.	.	4f\	.	.	.
!	!	!	!	!	!	!	!	!LO:TX:t=P:problem:kreska pseudotaktowa	!
.	.	.	.	.	.	4f\	.	2cc\	-ter
!	!	!LO:TX:t=P:problem:kreska pseudotaktowa	!	!	!	!	!	!	!
4A/	-po-	4A\	-po-	.	.	8e\L	.	.	.
!	!	!	!	!	!	!LO:TX:t=P:problem:kreska pseudotaktowa	!	!	!
.	.	.	.	.	.	8f\J	.	.	.
=75	=75	=75	=75	=75	=75	=75	=75	=75	=75
!LO:TX:t=P:problem:kreska pseudotaktowa	!	!	!	!	!	!	!	!	!
[1G	-tens	0,G	-tens	2,dZ\	-tens.	2.g\	-mni-	2cc\	O-
!	!	!	!	!LO:LB:g=original	!	!	!	!	!
.	.	.	.	[2g\	Do-	.	.	4b-/	.
.	.	.	.	.	.	8f\L	-po-	4a/	.
!	!	!	!	!	!	!LO:TX:t=P:problem:kreska pseudotaktowa	!	!	!
.	.	.	.	.	.	8e\J	.	.	.
=76	=76	=76	=76	=76	=76	=76	=76	=76	=76
!LO:TX:t=P:problem:kreska pseudotaktowa	!	!LO:TX:t=P:problem:kreska pseudotaktowa	!	!	!	!	!	!	!
1GZ]	.	.	.	4g\]	.	0d	-tens	2b-/	-mni-
.	.	.	.	4g\	-mi-	.	.	.	.
!	!	!	!	!LO:TX:t=P:problem:kreska pseudotaktowa	!	!	!	!LO:TX:t=P:problem:kreska pseudotaktowa	!
.	.	.	.	2g\	-ne	.	.	2b-/	-po-
=77	=77	=77	=77	=77	=77	=77	=77	=77	=77
!	!	!	!	!LO:TX:t=P:problem:kreska pseudotaktowa	!	!LO:TX:t=P:problem:kreska pseudotaktowa	!	!LO:TX:t=P:problem:kreska pseudotaktowa	!
2r	.	2r	.	[1f	Fi-	.	.	0a	-tens
!	!	!LO:TX:t=P:problem:kreska pseudotaktowamiędzy nutą a kropką	!	!	!	!	!	!	!
[2d\	Do-	[2d\	Do-	.	.	.	.	.	.
=78	=78	=78	=78	=78	=78	=78	=78	=78	=78
4d\]	.	4d\]	.	1f]	.	2r	.	.	.
4d\	-mi-	4d\	-mi-	.	.	.	.	.	.
!LO:TX:t=P:problem:kreska pseudotaktowa	!	!	!	!	!	!	!	!	!
2d\	-ne	2d\	-ne	.	.	[2a\	Do-	.	.
!LO:LB:g=original	!	!	!	!	!	!	!	!	!
=79	=79	=79	=79	=79	=79	=79	=79	=79	=79
!	!	!	!	!LO:TX:t=P:problem:kreska pseudotaktowa	!	!	!	!	!
2c\	Fi-	2c\	Fi-	1e	-li	4a\]	.	1r	.
.	.	.	.	.	.	4a\	-mi-	.	.
!LO:TX:t=P:problem:kreska pseudotaktowa	!	!LO:TX:t=P:problem:kreska pseudotaktowa	!	!	!	!LO:TX:t=P:problem:kreska pseudotaktowa	!	!	!
2A\	-li	2A\	-li	.	.	2a\	-ne	.	.
=80	=80	=80	=80	=80	=80	=80	=80	=80	=80
2.B-\	U-	2.B-\	U-	2.d\	U-	2f\	Fi-	2r	.
!	!	!	!	!	!	!LO:TX:t=P:problem:kreska pseudotaktowa	!	!	!
.	.	.	.	.	.	2d/	-li	[2dd\	Do-
4A/	-ni-	4A/	-ni-	4c/	-ni-	.	.	.	.
=81	=81	=81	=81	=81	=81	=81	=81	=81	=81
2G/	-ge-	2G/	-ge-	2B-/	-ge-	2g\	U-	4dd\]	.
.	.	.	.	.	.	.	.	4dd\	-mi-
!	!	!LO:TX:t=P:problem:kreska pseudotaktowa	!	!LO:TX:t=P:problem:kreska pseudotaktowa	!	!LO:TX:t=P:problem:kreska pseudotaktowa	!	!LO:TX:t=P:problem:kreska pseudotaktowa	!
2F#X/	-ni-	2F#X/	-ni-	2A/	.	2a\	-ni-	2dd\	-ne
=82	=82	=82	=82	=82	=82	=82	=82	=82	=82
0G	-te	0,G	-te	4G/	-ni-	1d	-ge-	2b-/	Fi-
.	.	.	.	4A/	.	.	.	.	.
!	!	!	!	!	!	!	!	!LO:TX:t=P:problem:kreska pseudotaktowa	!
.	.	.	.	4B-/	.	.	.	2g/	-li
.	.	.	.	4c/	.	.	.	.	.
!	!	!	!	!	!	!	!	!LO:LB:g=original	!
=83	=83	=83	=83	=83	=83	=83	=83	=83	=83
!LO:TX:t=P:problem:kreska pseudotaktowa	!	!LO:TX:t=P:problem:kreska pseudotaktowa	!	!LO:TX:t=P:problem:kreska pseudotaktowa	!	!	!	!	!
.	.	.	.	1d	-te	2.g\	.	2.b-/	u-
!	!	!	!	!	!	!LO:TX:t=P:problem:kreska pseudotaktowa	!	!LO:TX:t=P:problem:kreska pseudotaktowa	!
.	.	.	.	.	.	4a\	.	4a/	-ni-
=84	=84	=84	=84	=84	=84	=84	=84	=84	=84
!LO:TX:t=P:problem:kreska pseudotaktowa	!	!LO:TX:t=P:problem:kreska pseudotaktowa	!	!	!	!	!	!	!
1r	.	1r	.	2r	.	2b-\	.	2g/	-ge-
.	.	.	.	[2d\	Je-	2a\	-ni-	2f/	-ni-
=85	=85	=85	=85	=85	=85	=85	=85	=85	=85
!	!	!	!	!	!	!LO:TX:t=P:problem:kreska pseudotaktowa	!	!LO:TX:t=P:problem:kreska pseudotaktowa	!
1G	Je-	1G	Je-	2d\]	.	1,bnZ	-te	1g	-te
!	!	!	!	!LO:TX:t=P:problem:kreska pseudotaktowa	!	!	!	!	!
.	.	.	.	2G/	-su	.	.	.	.
!	!	!	!	!	!	!LO:LB:g=original	!	!	!
=86	=86	=86	=86	=86	=86	=86	=86	=86	=86
*lig	*	*lig	*	*	*	*	*	*	*
1D	-su	1D	-su	1g	X-	1cc	Je-	1ee-X	Je-
=87	=87	=87	=87	=87	=87	=87	=87	=87	=87
*Xlig	*	*Xlig	*	*	*	*	*	*	*
!	!	!LO:TX:t=P:problem:kreska pseudotaktowa	!	!	!	!	!	!LO:TX:t=P:problem:kreska pseudotaktowa	!
1E	.	1E	.	0.f	-te	2a\	-su	1dd	-su
.	.	.	.	.	.	[2b-\	Chri-	.	.
=88	=88	=88	=88	=88	=88	=88	=88	=88	=88
!	!	!	!	!	!	!	!	!LO:TX:t=P:problem:kreska pseudotaktowa	!
0F	X-	0F	Chri-	.	.	2b-\]	.	0cc	Chri-
.	.	.	.	.	.	4a\	.	.	.
!	!	!	!	!	!	!LO:TX:t=P:problem:kreska pseudotaktowa	!	!	!
.	.	.	.	.	.	4g\	.	.	.
!	!	!LO:LB:g=original	!	!	!	!	!	!	!
=89	=89	=89	=89	=89	=89	=89	=89	=89	=89
!LO:TX:t=P:problem:kreska pseudotaktowa	!	!	!	!	!	!	!	!	!
*	*	*custos:G	*	*	*	*	*	*	*
!	!	!LO:TX:t=P:problem:kreska pseudotaktowa	!	!LO:TX:t=P:problem:kreska pseudotaktowa	!	!	!	!	!
.	.	.	.	.	.	1a	.	.	.
!	!	!LO:PB:g=original	!	!	!	!	!	!	!
=90	=90	=90	=90	=90	=90	=90	=90	=90	=90
2.G/	.	2.G/	.	2r	.	2.d/	.	2.b-/	.
.	.	.	.	[2d\	Do-	.	.	.	.
8F/L	.	8F/L	.	.	.	4e/	.	8a/L	.
!	!	!	!	!	!	!	!	!LO:TX:t=P:problem:kreska pseudotaktowa	!
8E/J	.	8E/J	.	.	.	.	.	8g/J	.
=91	=91	=91	=91	=91	=91	=91	=91	=91	=91
!	!	!	!	!	!	!LO:TX:t=P:problem:kreska pseudotaktowa	!	!	!
0D	-te	0,D	-ste	4d\]	.	1f	-ste	2a,Z/	-ste
.	.	.	.	4d\	-mi-	.	.	.	.
!	!	!	!	!LO:TX:t=P:problem:kreska pseudotaktowa	!	!	!	!	!
.	.	.	.	2d\	-ne	.	.	[2dd\	Do-
=92	=92	=92	=92	=92	=92	=92	=92	=92	=92
!LO:TX:t=P:problem:kreska pseudotaktowa	!	!LO:TX:t=P:problem:kreska pseudotaktowa	!	!	!	!	!	!	!
.	.	.	.	2.f\	De-	2r	.	4dd\]	.
.	.	.	.	.	.	.	.	4dd\	-mi-
!	!	!	!	!	!	!	!	!LO:TX:t=P:problem:kreska pseudotaktowa	!
.	.	.	.	.	.	[2a\	Do-	2dd\	-ne
.	.	.	.	4e\	.	.	.	.	.
=93	=93	=93	=93	=93	=93	=93	=93	=93	=93
00r	.	00r	.	2d\	.	4a\]	.	2.ff\	De-
.	.	.	.	.	.	4a\	-mi-	.	.
!	!	!	!	!LO:TX:t=P:problem:kreska pseudotaktowa	!	!LO:TX:t=P:problem:kreska pseudotaktowa	!	!	!
.	.	.	.	2,cZ\	-us	2a\	-ne	.	.
!	!	!	!	!	!	!	!	!LO:TX:t=P:problem:kreska pseudotaktowa	!
.	.	.	.	.	.	.	.	4ee\	.
=94	=94	=94	=94	=94	=94	=94	=94	=94	=94
.	.	.	.	2B-/	Ag-	2b-\	De-	2dd\	.
!	!	!	!	!LO:TX:t=P:problem:kreska pseudotaktowa	!	!	!	!LO:TX:t=P:problem:kreska pseudotaktowa	!
.	.	.	.	2,FZ/	-nus	2a\	-us	2,ccZ\	-us
=95	=95	=95	=95	=95	=95	=95	=95	=95	=95
.	.	.	.	4G/	De-	2g\	Ag-	[1b-	A-
.	.	.	.	4A/	.	.	.	.	.
!	!	!	!	!	!	!LO:TX:t=P:problem:kreska pseudotaktowa	!	!	!
.	.	.	.	4B-/	.	2d/	-n(us)	.	.
!	!	!	!	!LO:TX:t=P:problem:kreska pseudotaktowa	!	!	!	!	!
.	.	.	.	4c/	.	.	.	.	.
=96	=96	=96	=96	=96	=96	=96	=96	=96	=96
.	.	.	.	4d\	.	1f	De-	2b-\]	.
.	.	.	.	4e\	.	.	.	.	.
!	!	!	!	!	!	!	!	!LO:TX:t=P:problem:kreska pseudotaktowa	!
.	.	.	.	[2f\	.	.	.	2a/	-gn(us)
=97	=97	=97	=97	=97	=97	=97	=97	=97	=97
0r	.	0r	.	2f\]	.	1c	-i	1g	De-
!	!	!	!	!LO:TX:t=P:problem:kreska pseudotaktowa	!	!	!	!	!
.	.	.	.	2e\	.	.	.	.	.
!	!	!	!	!LO:LB:g=original	!	!	!	!	!
=98	=98	=98	=98	=98	=98	=98	=98	=98	=98
!LO:TX:t=P:problem:kreska pseudotaktowa	!	!LO:TX:t=P:problem:kreska pseudotaktowa	!	!	!	!	!	!	!
.	.	.	.	2.f\	.	2.d/	De-	2f/	-i
.	.	.	.	.	.	.	.	[2a/	Fi-
!	!	!	!	!	!	!LO:TX:t=P:problem:kreska pseudotaktowa	!	!	!
.	.	.	.	4e\	.	4e\	.	.	.
=99	=99	=99	=99	=99	=99	=99	=99	=99	=99
2r	.	2r	.	2d\	.	2f\	.	4a/]	.
.	.	.	.	.	.	.	.	4a/	-li-
!	!	!	!	!LO:TX:t=P:problem:kreska pseudotaktowa	!	!	!	!LO:TX:t=P:problem:kreska pseudotaktowa	!
[2A/	Fi-	[2A\	Fi-	2c\	-i	4e/	.	2a/	-(us)
.	.	.	.	.	.	4d/	.	.	.
=100	=100	=100	=100	=100	=100	=100	=100	=100	=100
!	!	!	!	!	!	!LO:TX:t=P:problem:kreska pseudotaktowa	!	!	!
4A/]	.	4A\]	.	2r	.	1e	-i	2.cc\	Pa-
4A/	-li-	4A\	-li-	.	.	.	.	.	.
!LO:TX:t=P:problem:kreska pseudotaktowa	!	!LO:TX:t=P:problem:kreska pseudotaktowa	!	!	!	!	!	!	!
2A/	-us	2A\	-us	[2A/	Fi-	.	.	.	.
!	!	!	!	!	!	!	!	!LO:TX:t=P:problem:kreska pseudotaktowa	!
.	.	.	.	.	.	.	.	4dd\	.
=101	=101	=101	=101	=101	=101	=101	=101	=101	=101
2.c\	Pa-	2.c\	Pa-	4A/]	.	2r	.	0ee	.
.	.	.	.	4A/	-li-	.	.	.	.
!	!	!	!	!LO:TX:t=P:problem:kreska pseudotaktowa	!	!	!	!	!
.	.	.	.	2A/	-(us)	[2e\	Fi-	.	.
!LO:TX:t=P:problem:kreska pseudotaktowa	!	!LO:TX:t=P:problem:kreska pseudotaktowa	!	!	!	!	!	!	!
4B-\	.	4B-\	.	.	.	.	.	.	.
=102	=102	=102	=102	=102	=102	=102	=102	=102	=102
4A/	.	4A/	.	2.c\	Pa-	4e\]	.	.	.
4G/	.	4G/	.	.	.	4e\	-li-	.	.
!LO:TX:t=P:problem:kreska pseudotaktowa:między nutą a kropką	!	!	!	!	!	!LO:TX:t=P:problem:kreska pseudotaktowa	!	!	!
[2A/	.	[2A/	.	.	.	2e\	-us	.	.
.	.	.	.	4d\	.	.	.	.	.
=103	=103	=103	=103	=103	=103	=103	=103	=103	=103
!LO:N:xstem:cue	!	!	!	!	!	!	!	!	!
4A/]	.	4A/]	.	2e\	.	0a	Pa-	1cc	.
4G/	.	4G/	.	.	.	.	.	.	.
4F/	.	4F/	.	[2f\	.	.	.	.	.
!LO:TX:t=P:problem:kreska pseudotaktowa	!	!LO:TX:t=P:problem:kreska pseudotaktowa	!	!	!	!	!	!	!
4E/	.	4E/	.	.	.	.	.	.	.
=104	=104	=104	=104	=104	=104	=104	=104	=104	=104
!	!	!	!	!	!	!	!	!LO:TX:t=P:problem:kreska pseudotaktowa	!
4D/	.	4D/	.	4f\]	.	.	.	1dd	-tris
4E/	.	4E/	.	4e\	.	.	.	.	.
4F/	.	4F/	.	[2d\	.	.	.	.	.
4D/	.	4D/	.	.	.	.	.	.	.
!	!	!	!	!	!	!	!	!LO:LB:g=original	!
=105	=105	=105	=105	=105	=105	=105	=105	=105	=105
!	!	!LO:TX:t=P:problem:kreska pseudotaktowa	!	!	!	!	!	!LO:TX:t=P:problem:kreska pseudotaktowa	!
1E	.	1E	.	2d\]	.	[1g	.	1r	.
.	.	.	.	2c\	.	.	.	.	.
=106	=106	=106	=106	=106	=106	=106	=106	=106	=106
!	!	!	!	!LO:TX:t=P:problem:kreska pseudotaktowa	!	!	!	!	!
0.D	-tris.	0.D	-tris.	1d	-tris	2g\]	.	2r	.
.	.	.	.	.	.	4f\	.	[2dd\	Fi-
!	!	!	!	!	!	!LO:TX:t=P:problem:kreska pseudotaktowa	!	!	!
.	.	.	.	.	.	4e\	.	.	.
!	!	!	!	!	!	!LO:LB:g=original	!	!	!
=107	=107	=107	=107	=107	=107	=107	=107	=107	=107
.	.	.	.	2r	.	2.f\	.	4dd\]	.
.	.	.	.	.	.	.	.	4dd\	-li-
!	!	!	!	!	!	!	!	!LO:TX:t=P:problem:kreska pseudotaktowa	!
.	.	.	.	[2d\	Fi-	.	.	2dd\	-us
!	!	!	!	!	!	!LO:TX:t=P:problem:kreska pseudotaktowa	!	!	!
.	.	.	.	.	.	4g\	.	.	.
=108	=108	=108	=108	=108	=108	=108	=108	=108	=108
!LO:TX:t=P:problem:kreska pseudotaktowa	!	!LO:TX:t=P:problem:kreska pseudotaktowa	!	!	!	!	!	!	!
.	.	.	.	4d\]	.	2,aZ\	-tris	2.ff\	Pa-
.	.	.	.	4d\	-li-	.	.	.	.
!	!	!	!	!LO:TX:t=P:problem:kreska pseudotaktowa	!	!	!	!	!
.	.	.	.	2d\	-(us)	[2d/	Fi-	.	.
!	!	!	!	!	!	!	!	!LO:TX:t=P:problem:kreska pseudotaktowa	!
.	.	.	.	.	.	.	.	4ee\	.
=109	=109	=109	=109	=109	=109	=109	=109	=109	=109
2r	.	2r	.	2.f\	Pa-	4d/]	.	4dd\	.
.	.	.	.	.	.	4d/	-li-	4cc\	.
!	!	!	!	!	!	!LO:TX:t=P:problem:kreska pseudotaktowa	!	!LO:TX:t=P:problem:kreska pseudotaktowa	!
[2D/	Fi-	[2D/	Fi-	.	.	2d/	-(us)	2dd\	.
!	!	!	!	!LO:TX:t=P:problem:kreska pseudotaktowa	!	!	!	!	!
.	.	.	.	4e\	.	.	.	.	.
=110	=110	=110	=110	=110	=110	=110	=110	=110	=110
2D/]	.	2D/]	.	4d\	.	2.f\	Pa-	2b-/	.
.	.	.	.	4c\	.	.	.	.	.
!LO:TX:t=P:problem:kreska pseudotaktowa	!	!LO:TX:t=P:problem:kreska pseudotaktowa	!	!	!	!	!	!	!
2D/	-li-	2D/	-li-	[2d\	.	.	.	4a/	.
!	!	!	!	!	!	!LO:TX:t=P:problem:kreska pseudotaktowa	!	!	!
.	.	.	.	.	.	4g\	.	4g/	.
=111	=111	=111	=111	=111	=111	=111	=111	=111	=111
2,FZ/	-us	2F/	-us	4d\]	.	2a\	.	4f/	.
.	.	.	.	4c/	.	.	.	4e/	.
!	!	!	!	!	!	!	!	!LO:TX:t=P:problem:kreska pseudotaktowa	!
[2G/	Pa-	[2G/	Pa-	4B-/	.	[2b-\	.	2,dZ/	-tris
!	!	!	!	!LO:TX:t=P:problem:kreska pseudotaktowa	!	!	!	!	!
.	.	.	.	4A/	.	.	.	.	.
=112	=112	=112	=112	=112	=112	=112	=112	=112	=112
4G/]	.	4G/]	.	4G/	.	4b-\]	.	1dd	Fi-
4F/	.	4F/	.	4A/	.	4a\	.	.	.
!	!	!LO:TX:t=P:problem:kreska pseudotaktowa	!	!	!	!	!	!	!
2G/	.	2G/	.	4B-/	.	[2g\	.	.	.
.	.	.	.	4G/	.	.	.	.	.
=113	=113	=113	=113	=113	=113	=113	=113	=113	=113
0D	.	0D	.	0A	.	2g\]	.	2dd\	-li-
!	!	!	!	!	!	!	!	!LO:TX:t=P:problem:kreska pseudotaktowa	!
.	.	.	.	.	.	4f#X\	.	2dd\	-(us)
!	!	!	!	!	!	!LO:TX:t=P:problem:kreska pseudotaktowa	!	!	!
.	.	.	.	.	.	4e\	.	.	.
=114	=114	=114	=114	=114	=114	=114	=114	=114	=114
!	!	!	!	!LO:TX:t=P:problem:kreska pseudotaktowa	!	!	!	!	!
.	.	.	.	.	.	1f#X	.	1dd	Pa-
=115	=115	=115	=115	=115	=115	=115	=115	=115	=115
!	!	!	!	!	!	!	!	!LO:TX:t=P:problem:kreska pseudotaktowa	!
0G;	-tris.	0G;	-tris.	0G;	-tris.	0g;	-tris.	0bn;	-tris
=116	=116	=116	=116	=116	=116	=116	=116	=116	=116
!	!	!	!	!	!	!LO:TX:t=P:problem:kreska pseudotaktowa	!	!	!
!LO:LB:g=original	!	!LO:LB:g=original	!	!LO:LB:g=original	!	!	!	!	!
=117||	=117||	=117||	=117||	=117||	=117||	=117||	=117||	=117||	=117||
!	!	!	!	!	!	!	!	!LO:TX:t=P:problem:kreska pseudotaktowa	!
00r	.	00r	.	00r	.	1g	Qui	1r	.
=118	=118	=118	=118	=118	=118	=118	=118	=118	=118
!	!	!	!	!	!	!LO:TX:t=P:problem:kreska pseudotaktowa	!	!	!
.	.	.	.	.	.	1b-	tol-	1g	Qui
=119	=119	=119	=119	=119	=119	=119	=119	=119	=119
!	!	!	!	!	!	!	!	!LO:TX:t=P:problem:kreska pseudotaktowa	!
.	.	.	.	.	.	2g\	-lis	1b-	tol-
!	!	!	!	!	!	!LO:TX:t=P:problem:kreska pseudotaktowa	!	!	!
.	.	.	.	.	.	2g\	pec-	.	.
=120	=120	=120	=120	=120	=120	=120	=120	=120	=120
.	.	.	.	.	.	2b-\	-ca-	2g/	-lis
.	.	.	.	.	.	2a\	-ta	2f/	pec-
=121	=121	=121	=121	=121	=121	=121	=121	=121	=121
0r	.	0r	.	0r	.	2.g\	.	2b-\	-ca-
!	!	!	!	!	!	!	!	!LO:TX:t=P:problem:kreska pseudotaktowa	!
.	.	.	.	.	.	.	.	2b-\	-ta
!	!	!	!	!	!	!LO:TX:t=P:problem:kreska pseudotaktowa	!	!	!
.	.	.	.	.	.	4f\	.	.	.
=122	=122	=122	=122	=122	=122	=122	=122	=122	=122
!LO:TX:t=P:problem:kreska pseudotaktowa	!	!LO:TX:t=P:problem:kreska pseudotaktowa	!	!	!	!	!	!	!
.	.	.	.	.	.	4e/	.	1cc	mun-
.	.	.	.	.	.	4d/	.	.	.
!	!	!	!	!	!	!LO:TX:t=P:problem:kreska pseudotaktowa	!	!	!
.	.	.	.	.	.	2e/	mun-	.	.
=123	=123	=123	=123	=123	=123	=123	=123	=123	=123
!	!	!LO:TX:t=P:problem:kreska pseudotaktowa	!	!LO:TX:t=P:problem:kreska pseudotaktowa	!	!LO:TX:a:t=4	!	!LO:TX:t=P:problem:kreska pseudotaktowa	!
1G	Qui	1G	Qui	1r	.	00d	-di	0dd	-di
=124	=124	=124	=124	=124	=124	=124	=124	=124	=124
!LO:TX:t=P:problem:kreska pseudotaktowa	!	!LO:TX:t=P:problem:kreska pseudotaktowa	!	!LO:TX:t=P:problem:kreska pseudotaktowa	!	!	!	!	!
1B-	tol-	1B-	tol-	1G	Qui	.	.	.	.
=125	=125	=125	=125	=125	=125	=125	=125	=125	=125
2,GZ/	-lis	2,GZ/	-lis	1B-	tol-	.	.	00r	.
!	!	!LO:TX:t=P:problem:kreska pseudotaktowa	!	!	!	!	!	!	!
2G/	pec-	2G/	pec-	.	.	.	.	.	.
=126	=126	=126	=126	=126	=126	=126	=126	=126	=126
!	!	!	!	!	!	!LO:TX:t=P:problem:kreska pseudotaktowa	!	!	!
2B-\	-ca-	2B-\	-ca-	2G/	-lis	.	.	.	.
!LO:TX:t=P:problem:kreska pseudotaktowa	!	!LO:TX:t=P:problem:kreska pseudotaktowa	!	!LO:TX:t=P:problem:kreska pseudotaktowa	!	!	!	!	!
2,AZ\	-ta	2A\	-ta	2F/	pec-	.	.	.	.
=127	=127	=127	=127	=127	=127	=127	=127	=127	=127
!	!	!	!	!	!	!LO:TX:t=P:problem:kreska pseudotaktowa	!	!	!
2.G/	mun-	2.G/	mun-	2B-/	-ca-	1r	.	.	.
.	.	.	.	2B-/	-ta	.	.	.	.
!	!	!LO:TX:t=P:problem:kreska pseudotaktowa	!	!	!	!	!	!	!
4F/	.	4F/	.	.	.	.	.	.	.
!	!	!	!	!	!	!LO:LB:g=original	!	!	!
=128	=128	=128	=128	=128	=128	=128	=128	=128	=128
!	!	!	!	!	!	!	!	!LO:TX:t=P:problem:kreska pseudotaktowa	!
4E/	.	4E/	.	1c	mun-	2r	.	.	.
4D/	.	4D/	.	.	.	.	.	.	.
2E/	.	2E/	.	.	.	[2g\	mi-	.	.
!	!	!	!	!	!	!	!	!LO:LB:g=original	!
=129	=129	=129	=129	=129	=129	=129	=129	=129	=129
!LO:TX:t=P:problem:kreska pseudotaktowa	!	!LO:TX:t=P:problem:kreska pseudotaktowa	!	!LO:TX:t=P:problem:kreska pseudotaktowa	!	!	!	!	!
1,DZ	-di.	1,DZ	-di.	1d	-di	2g\]	.	2r	.
!	!	!	!	!	!	!LO:TX:t=P:problem:kreska pseudotaktowa	!	!	!
.	.	.	.	.	.	2f\	-ſe	[2dd\	mi-
=130	=130	=130	=130	=130	=130	=130	=130	=130	=130
00r	.	00r	.	1r	.	2b-\	re-	2dd\]	.
!	!	!	!	!	!	!LO:TX:t=P:problem:kreska pseudotaktowa	!	!LO:TX:t=P:problem:kreska pseudotaktowa	!
.	.	.	.	.	.	2a\	-re	2cc\	-ſe
=131	=131	=131	=131	=131	=131	=131	=131	=131	=131
.	.	.	.	2r	.	4d/	no-	[1ff	re-
.	.	.	.	.	.	4e/	.	.	.
.	.	.	.	[2d\	mi-	4f\	.	.	.
!	!	!	!	!	!	!LO:TX:t=P:problem:kreska pseudotaktowa	!	!	!
.	.	.	.	.	.	4g\	.	.	.
=132	=132	=132	=132	=132	=132	=132	=132	=132	=132
.	.	.	.	2d\]	.	4a\	.	2ff\]	.
.	.	.	.	.	.	4b-\	.	.	.
!	!	!	!	!LO:TX:t=P:problem:kreska pseudotaktowa	!	!	!	!LO:TX:t=P:problem:kreska pseudotaktowa	!
.	.	.	.	2c\	-ſe	[2cc\	.	2ee\	-re
=133	=133	=133	=133	=133	=133	=133	=133	=133	=133
.	.	.	.	2f\	re-	2cc\]	.	2.dd\	no-
!	!	!	!	!LO:TX:t=P:problem:kreska pseudotaktowa	!	!LO:TX:t=P:problem:kreska pseudotaktowa	!	!	!
.	.	.	.	2g\	-re	2b-\	.	.	.
.	.	.	.	.	.	.	.	8cc\L	.
.	.	.	.	.	.	.	.	8b-\J	.
=134	=134	=134	=134	=134	=134	=134	=134	=134	=134
0r	.	0r	.	2f\	no-	2a\	.	4cc\	.
.	.	.	.	.	.	.	.	4b-\	.
.	.	.	.	2e\	.	[2g\	.	4a/	.
!	!	!	!	!	!	!	!	!LO:TX:t=P:problem:kreska pseudotaktowa	!
.	.	.	.	.	.	.	.	4g/	.
=135	=135	=135	=135	=135	=135	=135	=135	=135	=135
!LO:TX:t=P:problem:kreska pseudotaktowa	!	!LO:TX:t=P:problem:kreska pseudotaktowa	!	!	!	!	!	!	!
.	.	.	.	1d	.	2g\]	.	1a	.
!	!	!	!	!	!	!LO:TX:t=P:problem:kreska pseudotaktowa	!	!	!
.	.	.	.	.	.	2f#X\	.	.	.
=136	=136	=136	=136	=136	=136	=136	=136	=136	=136
!	!	!	!	!	!	!LO:TX:t=P:problem:kreska pseudotaktowa	!	!	!
2r	.	2r	.	0G	-bis.	1g	-bis	4g/	.
.	.	.	.	.	.	.	.	4a/	.
!	!	!LO:TX:t=P:problem:kreska pseudotaktowa	!	!	!	!	!	!	!
2G/	Qui	2G/	Qui	.	.	.	.	4b-/	.
.	.	.	.	.	.	.	.	4cc/	.
=137	=137	=137	=137	=137	=137	=137	=137	=137	=137
!LO:TX:t=P:problem:kreska pseudotaktowa	!	!LO:TX:t=P:problem:kreska pseudotaktowa	!	!LO:TX:t=P:problem:kreska pseudotaktowa	!	!	!	!LO:TX:t=P:problem:kreska pseudotaktowa	!
1B-	tol-	1B-	tol-	.	.	2r	.	1dd	-bis
!	!	!	!	!	!	!LO:TX:t=P:problem:kreska pseudotaktowa	!	!	!
.	.	.	.	.	.	2g\	Qui	.	.
=138	=138	=138	=138	=138	=138	=138	=138	=138	=138
[1G	-lis	[1G	-lis	00r	.	1b-	tol-	2r	.
!	!	!	!	!	!	!	!	!LO:TX:t=P:problem:kreska pseudotaktowa	!
.	.	.	.	.	.	.	.	2g/	Qui
=139	=139	=139	=139	=139	=139	=139	=139	=139	=139
2G/]	.	2G/]	.	.	.	2g\	-lis	1b-	tol-
!	!	!LO:TX:t=P:problem:kreska pseudotaktowa	!	!	!	!LO:TX:t=P:problem:kreska pseudotaktowa	!	!	!
2G/	pec-	2G/	pec-	.	.	2g\	pec-	.	.
=140	=140	=140	=140	=140	=140	=140	=140	=140	=140
2G/	-ca-	2G/	-ca-	.	.	2b-\	-ca-	2g/	-lis
!LO:TX:t=P:problem:kreska pseudotaktowa	!	!LO:TX:t=P:problem:kreska pseudotaktowa	!	!	!	!LO:TX:t=P:problem:kreska pseudotaktowa	!	!LO:TX:t=P:problem:kreska pseudotaktowa	!
2D/	-ta	2D/	-ta	.	.	2a\	-ta	2f/	pec-
=141	=141	=141	=141	=141	=141	=141	=141	=141	=141
1G	mun-	1G	mun-	.	.	2.g\	mun-	2b-\	-ca-
.	.	.	.	.	.	.	.	2b-\	-ta
!	!	!	!	!	!	!LO:TX:t=P:problem:kreska pseudotaktowa	!	!	!
.	.	.	.	.	.	4f\	.	.	.
=142	=142	=142	=142	=142	=142	=142	=142	=142	=142
!LO:TX:t=P:problem:kreska pseudotaktowa	!	!LO:TX:t=P:problem:kreska pseudotaktowa	!	!LO:TX:t=P:problem:kreska pseudotaktowa	!	!	!	!	!
1,AZ	-di	1,AZ	-di	1r	.	4e/	.	1cc	mun-
.	.	.	.	.	.	4d/	.	.	.
!	!	!	!	!	!	!LO:TX:t=P:problem:kreska pseudotaktowa	!	!	!
.	.	.	.	.	.	2e/	.	.	.
=143	=143	=143	=143	=143	=143	=143	=143	=143	=143
!	!	!	!	!	!	!	!	!LO:TX:t=P:problem:kreska pseudotaktowa	!
[1B-	mi-	[1B-	Suſ-	2r	.	2,dZ/	-di	1dd	-di
.	.	.	.	[2d\	Suſ-	[2b-\	Suſ-	.	.
=144	=144	=144	=144	=144	=144	=144	=144	=144	=144
2B-\]	.	2B-\]	.	2d\]	.	2b-\]	.	2r	.
!LO:TX:t=P:problem:kreska pseudotaktowa	!	!	!	!	!	!	!	!	!
!	!	!LO:TX:t=P:problem:kreska pseudotaktowa	!	!LO:TX:t=P:problem:kreska pseudotaktowa	!	!	!	!	!
!	!	!	!	!	!	!LO:TX:t=P:problem:kreska pseudotaktowa	!	!	!
2B-\	-ſe	2B-\	-ci-	2d\	-ci-	2b-\	-ci-	[2dd\	Suſ-
*custos:B	*	*	*	*	*	*custos:b	*	*	*
!LO:LB:g=original	!	!	!	!	!	!LO:LB:g=original	!	!	!
=145	=145	=145	=145	=145	=145	=145	=145	=145	=145
*	*	*	*	*	*	*lig	*	*	*
2.B-\	Sus-	2.B-\	-pe	[1f	-pe	1b-	-pe	2dd\]	.
!	!	!	!	!	!	!	!	!LO:TX:t=P:problem:kreska pseudotaktowa	!
.	.	.	.	.	.	.	.	2dd\	-ci-
4c\	-ci-	4c\	.	.	.	.	.	.	.
=146	=146	=146	=146	=146	=146	=146	=146	=146	=146
!LO:TX:t=P:problem:kreska pseudotaktowa	!	!LO:TX:t=P:problem:kreska pseudotaktowa	!	!	!	!	!	!	!
*	*	*	*	*	*	*Xlig	*	*	*
!	!	!	!	!	!	!LO:TX:t=P:problem:kreska pseudotaktowa	!	!	!
1d	-pe	1,dZ	.	2f\]	.	1a	.	2dd\	-pe
.	.	.	.	4e\	.	.	.	[2dd\	de-
.	.	.	.	4d\	.	.	.	.	.
!	!	!LO:LB:g=original	!	!	!	!	!	!	!
=147	=147	=147	=147	=147	=147	=147	=147	=147	=147
!	!	!	!	!LO:TX:t=P:problem:kreska pseudotaktowa	!	!	!	!	!
[1A	de-	[1A	de-	1e	.	1a	de-	2dd\]	.
!	!	!	!	!	!	!	!	!LO:TX:t=P:problem:kreska pseudotaktowa	!
.	.	.	.	.	.	.	.	2cc\	-pre-
=148	=148	=148	=148	=148	=148	=148	=148	=148	=148
2A\]	.	2A\]	.	2r	.	2a\	-pre-	2ff\	-ca-
!LO:TX:t=P:problem:kreska pseudotaktowa	!	!LO:TX:t=P:problem:kreska pseudotaktowa	!	!	!	!	!	!	!
2G/	-pre-	2G/	-pre-	[2d\	de-	[2b-\	-ca-	2gg\	-ti-
=149	=149	=149	=149	=149	=149	=149	=149	=149	=149
2B-\	-ca-	2B-\	-ca-	2d\]	.	2b-\]	-ti-	2ff\	-o-
!LO:TX:t=P:problem:kreska pseudotaktowa	!	!	!	!LO:TX:t=P:problem:kreska pseudotaktowa	!	!LO:TX:t=P:problem:kreska pseudotaktowa	!	!	!
*	*	*	*	*	*	*	*	*custos:ee 	*
!	!	!	!	!	!	!	!	!LO:TX:t=P:problem:kreska pseudotaktowa	!
2c\	-ti-	2c\	-ti-	2c\	-pre-	2g\	-o-	[2ee\	.
!	!	!	!	!LO:LB:g=original	!	!	!	!LO:LB:g=original	!
=150	=150	=150	=150	=150	=150	=150	=150	=150	=150
!	!	!	!	!	!	!	!	!LO:N:xstem:cue	!
2B-\	-o-	2B-\	-o-	2f\	-ca-	1b-	-nem	4ee\]	.
.	.	.	.	.	.	.	.	4dd\	.
!LO:TX:t=P:problem:kreska pseudotaktowa	!	!LO:TX:t=P:problem:kreska pseudotaktowa	!	!	!	!	!	!	!
2,GZ/	-nem	2G/	-nem	2g\	-ti-	.	.	[2dd\	-nem
=151	=151	=151	=151	=151	=151	=151	=151	=151	=151
!	!	!	!	!	!	!LO:TX:t=P:problem:kreska pseudotaktowa	!	!	!
2.A\	no-	2.A\	no-	2f\	-o-	1a	.	2dd\]	.
!	!	!	!	!	!	!	!	!LO:TX:t=P:problem:kreska pseudotaktowa	!
.	.	.	.	[2e\	-nem	.	.	[2cc\	.
!	!	!LO:TX:t=P:problem:kreska pseudotaktowa	!	!	!	!	!	!	!
4B-\	.	4B-\	.	.	.	.	.	.	.
=152	=152	=152	=152	=152	=152	=152	=152	=152	=152
!	!	!	!	!	!	!	!	!LO:N:xstem:cue	!
2c\	.	2c\	.	2e\]	.	2.g\	no-	4cc\]	.
.	.	.	.	.	.	.	.	4g/	.
!	!	!LO:TX:t=P:problem:kreska pseudotaktowa	!	!LO:TX:t=P:problem:kreska pseudotaktowa:między nutą a kropką	!	!	!	!LO:TX:t=P:problem:kreska pseudotaktowa	!
2G/	.	2G/	.	[2d\	.	.	.	2b-/	no-
.	.	.	.	.	.	4f\	.	.	.
=153	=153	=153	=153	=153	=153	=153	=153	=153	=153
!	!	!	!	!LO:N:xstem:cue	!	!LO:TX:t=P:problem:kreska pseudotaktowa	!	!LO:TX:t=P:problem:kreska pseudotaktowa	!
1A	.	1A	.	4d\]	.	1e	.	0a	-stram
.	.	.	.	4c#X\	.	.	.	.	.
!	!	!	!	!LO:TX:t=P:problem:kreska pseudotaktowa	!	!	!	!	!
.	.	.	.	2c#\	no-	.	.	.	.
=154	=154	=154	=154	=154	=154	=154	=154	=154	=154
0D	-stram	0,D	-stram	2,dZ\	-stram	2,f#XZ\	-stram	.	.
!	!	!	!	!LO:TX:t=P:problem:kreska pseudotaktowa	!	!LO:TX:t=P:problem:kreska pseudotaktowa	!	!	!
.	.	.	.	2f#X\	Qui	2a\	Qui	.	.
=155	=155	=155	=155	=155	=155	=155	=155	=155	=155
!LO:TX:t=P:problem:kreska pseudotaktowa	!	!LO:TX:t=P:problem:kreska pseudotaktowa	!	!	!	!	!	!	!
.	.	.	.	1f	se-	1a	se-	2r	.
!	!	!	!	!	!	!	!	!LO:TX:t=P:problem:kreska pseudotaktowa	!
.	.	.	.	.	.	.	.	2dd\	Qui
=156	=156	=156	=156	=156	=156	=156	=156	=156	=156
00r	.	00r	.	2,gZ\	-des	2b-\	-des	2dd\	se-
!	!	!	!	!LO:TX:t=P:problem:kreska pseudotaktowa	!	!LO:TX:t=P:problem:kreska pseudotaktowa	!	!	!
.	.	.	.	2c/	ad	2cc\	ad	2,eeZ\	-des
=157	=157	=157	=157	=157	=157	=157	=157	=157	=157
!	!	!	!	!	!	!	!	!LO:TX:t=P:problem:kreska pseudotaktowa	!
.	.	.	.	2.g\	dex-	2.b-\	dex-	1dd	ad
!	!	!	!	!	!	!LO:TX:t=P:problem:kreska pseudotaktowa	!	!	!
.	.	.	.	4g\	-te-	4b-\	-te-	.	.
=158	=158	=158	=158	=158	=158	=158	=158	=158	=158
.	.	.	.	2e\	-ram	2g\	-ram	2.cc\	dex-
!	!	!	!	!LO:TX:t=P:problem:kreska pseudotaktowa:między nutą a kropką	!	!	!	!	!
.	.	.	.	[2f\	Pa-	[2a\	Pa-	.	.
!	!	!	!	!	!	!	!	!LO:TX:t=P:problem:kreska pseudotaktowa	!
.	.	.	.	.	.	.	.	4cc\	-te-
=159	=159	=159	=159	=159	=159	=159	=159	=159	=159
!	!	!	!	!LO:N:xstem:cue	!	!	!	!	!
.	.	.	.	4f\]	.	4a\]	.	2a/	-ram
.	.	.	.	4e\	.	4g\	.	.	.
.	.	.	.	4d\	.	4f\	.	[2b-/	Pa-
!	!	!	!	!LO:TX:t=P:problem:kreska pseudotaktowa	!	!LO:TX:t=P:problem:kreska pseudotaktowa	!	!	!
.	.	.	.	4c\	.	4e\	.	.	.
=160	=160	=160	=160	=160	=160	=160	=160	=160	=160
!LO:TX:t=P:problem:kreska pseudotaktowa	!	!LO:TX:t=P:problem:kreska pseudotaktowa	!	!	!	!	!	!	!
1r	.	1r	.	2.d\	.	2.f\	.	4b-/]	.
.	.	.	.	.	.	.	.	4a/	.
.	.	.	.	.	.	.	.	[2a/	.
.	.	.	.	4c/	.	4e\	.	.	.
=161	=161	=161	=161	=161	=161	=161	=161	=161	=161
!	!	!	!	!	!	!LO:TX:t=P:problem:kreska pseudotaktowa	!	!	!
2r	.	2r	.	1B-	.	1d	.	2a/]	.
!	!	!	!	!	!	!	!	!LO:TX:t=P:problem:kreska pseudotaktowa	!
[2d\	mi-	[2d\	mi-	.	.	.	.	2g/	.
=162	=162	=162	=162	=162	=162	=162	=162	=162	=162
!	!	!	!	!LO:TX:t=P:problem:kreska pseudotaktowa	!	!	!	!	!
2d\]	.	2d\]	.	1A	-tris	2,eZ\	-tris	2.a/	.
!LO:TX:t=P:problem:kreska pseudotaktowa	!	!LO:TX:t=P:problem:kreska pseudotaktowa	!	!	!	!	!	!	!
2c#X\	-ſe	2c#X\	-ſe	.	.	[2a\	mi-	.	.
!	!	!	!	!	!	!	!	!LO:TX:t=P:problem:kreska pseudotaktowa	!
.	.	.	.	.	.	.	.	4g/	.
=163	=163	=163	=163	=163	=163	=163	=163	=163	=163
1d	re-	1d	re-	2r	.	2a\]	.	4f#X/	.
.	.	.	.	.	.	.	.	4e/	.
!	!	!	!	!	!	!LO:TX:t=P:problem:kreska pseudotaktowa	!	!LO:TX:t=P:problem:kreska pseudotaktowa	!
.	.	.	.	[2d\	mi-	2a\	-se-	2f#/	.
=164	=164	=164	=164	=164	=164	=164	=164	=164	=164
!LO:TX:t=P:problem:kreska pseudotaktowa	!	!LO:TX:t=P:problem:kreska pseudotaktowa	!	!	!	!	!	!LO:TX:t=P:problem:kreska pseudotaktowa	!
1G	-re	1,GZ	-re	2d\]	.	2.b-\	-re-	1g	-tris
!	!	!	!	!LO:TX:t=P:problem:kreska pseudotaktowa	!	!	!	!	!
.	.	.	.	2d\	-ſe	.	.	.	.
!	!	!	!	!	!	!LO:TX:t=P:problem:kreska pseudotaktowa	!	!	!
.	.	.	.	.	.	4a\	.	.	.
!	!	!	!	!	!	!LO:LB:g=original	!	!	!
=165	=165	=165	=165	=165	=165	=165	=165	=165	=165
2c\	no-	2c\	no-	2e\	re-	4g\	.	00r	.
.	.	.	.	.	.	4f\	.	.	.
!	!	!LO:TX:t=P:problem:kreska pseudotaktowa	!	!	!	!LO:TX:t=P:problem:kreska pseudotaktowa	!	!	!
2B-\	.	2B-\	.	2d\	-re	2g\	.	.	.
=166	=166	=166	=166	=166	=166	=166	=166	=166	=166
2.A/	.	2.A/	.	2.c/	no-	2f\	-re	.	.
.	.	.	.	.	.	[2e/	no-	.	.
!	!	!LO:TX:t=P:problem:kreska pseudotaktowa	!	!	!	!	!	!	!
!	!	!	!	!LO:TX:t=P:problem:kreska pseudotaktowa	!	!	!	!	!
4G/	.	4G/	.	4B-/	.	.	.	.	.
*	*	*	*	*custos:A	*	*	*	*	*
!	!	!	!	!LO:LB:g=original	!	!	!	!	!
=167	=167	=167	=167	=167	=167	=167	=167	=167	=167
2F/	.	2F/	.	2A/	.	4e/]	.	.	.
.	.	.	.	.	.	4d/	.	.	.
!	!	!	!	!LO:TX:t=P:problem:kreska pseudotaktowa	!	!	!	!	!
2G/	.	2G/	.	2B-/	.	[2d/	.	.	.
=168	=168	=168	=168	=168	=168	=168	=168	=168	=168
1E	.	1E-X	.	2,GZ/	-bis	2d/]	.	.	.
!	!	!	!	!	!	!LO:TX:t=P:problem:kreska pseudotaktowa	!	!	!
.	.	.	.	[2g\	Quo-	2c/	.	.	.
=169	=169	=169	=169	=169	=169	=169	=169	=169	=169
!LO:TX:t=P:problem:kreska pseudotaktowa	!	!LO:TX:t=P:problem:kreska pseudotaktowa	!	!	!	!	!	!	!
1D	-bis	1,DZ	-bis	2g\]	.	2,dZ/	-bis.	2r	.
!	!	!	!	!LO:TX:t=P:problem:kreska pseudotaktowa	!	!LO:TX:t=P:problem:kreska pseudotaktowa	!	!LO:TX:t=P:problem:kreska pseudotaktowa	!
.	.	.	.	2f#X\	-ni-	2a\	Quo-	2dd\	Quo-
=170	=170	=170	=170	=170	=170	=170	=170	=170	=170
0r	.	0r	.	2g\	-am	2b-\	-ni-	2dd\	-ni-
!	!	!	!	!LO:TX:t=P:problem:kreska pseudotaktowa	!	!	!	!	!
.	.	.	.	2c/	Tu	[2cc\	-am	2ee\	-am
=171	=171	=171	=171	=171	=171	=171	=171	=171	=171
!	!	!	!	!	!	!	!	!LO:TX:t=P:problem:kreska pseudotaktowa	!
.	.	.	.	2g\	so-	2cc\]	.	1dd	Tu
!	!	!	!	!	!	!LO:TX:t=P:problem:kreska pseudotaktowa	!	!	!
.	.	.	.	2g\	-l(us)	2b-\	Tu	.	.
=172	=172	=172	=172	=172	=172	=172	=172	=172	=172
!LO:TX:t=P:problem:kreska pseudotaktowa	!	!LO:TX:t=P:problem:kreska pseudotaktowa	!	!	!	!	!	!	!
1r	.	1r	.	1c	San-	2a\	so-	1cc	so-
.	.	.	.	.	.	[2g\	-l(us)	.	.
=173	=173	=173	=173	=173	=173	=173	=173	=173	=173
!	!	!	!	!LO:TX:t=P:problem:kreska pseudotaktowa	!	!	!	!LO:TX:t=P:problem:kreska pseudotaktowa	!
2r	.	2r	.	1d	-ct(us)	2g\]	.	1a	-l(us)
!	!	!LO:TX:t=P:problem:kreska pseudotaktowa	!	!	!	!	!	!	!
2d\	Tu	2d\	Tu	.	.	4f\	.	.	.
!	!	!	!	!	!	!LO:TX:t=P:problem:kreska pseudotaktowa	!	!	!
.	.	.	.	.	.	4e\	.	.	.
!	!	!	!	!	!	!	!	!LO:LB:g=original	!
=174	=174	=174	=174	=174	=174	=174	=174	=174	=174
2d\	so-	2d\	so-	0r	.	2f\	San-	2.b-\	San-
!LO:TX:t=P:problem:kreska pseudotaktowa	!	!LO:TX:t=P:problem:kreska pseudotaktowa	!	!	!	!	!	!	!
2e\	-lus	2e\	-lus	.	.	[2g\	.	.	.
!	!	!	!	!	!	!	!	!LO:TX:t=P:problem:kreska pseudotaktowa	!
.	.	.	.	.	.	.	.	4cc\	.
!LO:LB:g=original	!	!LO:LB:g=original	!	!	!	!	!	!	!
=175	=175	=175	=175	=175	=175	=175	=175	=175	=175
1d	San-	1d	San-	.	.	4g\]	.	4b-/	.
.	.	.	.	.	.	4f\	.	4a/	.
.	.	.	.	.	.	[2f\	.	4a/	.
.	.	.	.	.	.	.	.	8g/L	.
!	!	!	!	!	!	!	!	!LO:TX:t=P:problem:kreska pseudotaktowa	!
.	.	.	.	.	.	.	.	8f/J	.
=176	=176	=176	=176	=176	=176	=176	=176	=176	=176
!	!	!LO:TX:t=P:problem:kreska pseudotaktowa	!	!	!	!	!	!	!
2.c\	.	1c	.	2r	.	2f\]	.	1g	.
!	!	!	!	!	!	!LO:TX:t=P:problem:kreska pseudotaktowa	!	!	!
.	.	.	.	[2c\	Tu	2e\	.	.	.
!LO:TX:t=P:problem:kreska pseudotaktowa	!	!	!	!	!	!	!	!	!
4B-\	.	.	.	.	.	.	.	.	.
=177	=177	=177	=177	=177	=177	=177	=177	=177	=177
2A\	.	2A\	.	2c\]	.	2.f\	.	2,aZ/	-ctus
!	!	!	!	!	!	!	!	!LO:TX:t=P:problem:kreska pseudotaktowa	!
[2B-\	.	[2B-\	.	[2d\	so-	.	.	2f/	Tu
.	.	.	.	.	.	4e\	.	.	.
=178	=178	=178	=178	=178	=178	=178	=178	=178	=178
2B-\]	.	2B-\]	.	2d\]	.	2d/	.	2g/	so-
!LO:TX:t=P:problem:kreska pseudotaktowa	!	!LO:TX:t=P:problem:kreska pseudotaktowa	!	!LO:TX:t=P:problem:kreska pseudotaktowa	!	!	!	!	!
2A\	.	2A\	.	2c\	-l(us)	4e\	.	2a/	-l(us)
!	!	!	!	!	!	!LO:TX:t=P:problem:kreska pseudotaktowa	!	!	!
.	.	.	.	.	.	4f\	.	.	.
=179	=179	=179	=179	=179	=179	=179	=179	=179	=179
!	!	!	!	!	!	!	!	!LO:TX:t=P:problem:kreska pseudotaktowa	!
1G	.	1G	.	4B-/	Do-	2.g\	.	1b-	San-
.	.	.	.	4G/	.	.	.	.	.
.	.	.	.	[2d\	.	.	.	.	.
!	!	!	!	!	!	!LO:TX:t=P:problem:kreska pseudotaktowa	!	!	!
.	.	.	.	.	.	4f\	.	.	.
=180	=180	=180	=180	=180	=180	=180	=180	=180	=180
!LO:TX:t=P:problem:kreska pseudotaktowa	!	!LO:TX:t=P:problem:kreska pseudotaktowa	!	!	!	!	!	!LO:TX:t=P:problem:kreska pseudotaktowa	!
1A	-ctus	1A	-ctus	2d\]	.	2,eZ\	-ctus	1a	-ct(us)
!	!	!	!	!LO:TX:t=P:problem:kreska pseudotaktowa	!	!LO:TX:t=P:problem:kreska pseudotaktowa	!	!	!
.	.	.	.	2c#X\	-mi-	2a\	Tu	.	.
=181	=181	=181	=181	=181	=181	=181	=181	=181	=181
2r	.	2r	.	2,dZ\	-n(us)	2a\	so-	00r	.
!	!	!LO:TX:t=P:problem:kreska pseudotaktowa	!	!LO:TX:t=P:problem:kreska pseudotaktowa	!	!LO:TX:t=P:problem:kreska pseudotaktowa	!	!	!
*	*	*	*	*	*ij	*	*	*	*
2d\	Tu	2d\	Tu	2f\	Do-	2b-\	-l(us)	.	.
=182	=182	=182	=182	=182	=182	=182	=182	=182	=182
2d\	so-	2d\	so-	2f\	.	2a\	Do-	.	.
!LO:TX:t=P:problem:kreska pseudotaktowa	!	!LO:TX:t=P:problem:kreska pseudotaktowa	!	!	!	!LO:TX:t=P:problem:kreska pseudotaktowa	!	!	!
2e\	-l(us)	2e\	-l(us)	[2g\	.	2g\	.	.	.
!	!	!	!	!	!	!LO:LB:g=original	!	!	!
=183	=183	=183	=183	=183	=183	=183	=183	=183	=183
2d\	Do-	2d\	Do-	2g\]	.	2b-\	.	.	.
!	!	!LO:TX:t=P:problem:kreska pseudotaktowa	!	!	!	!	!	!	!
2d\	-mi-	2d\	-mi-	[2f\	.	4a\	.	.	.
.	.	.	.	.	.	8g\L	.	.	.
!	!	!	!	!	!	!LO:TX:t=P:problem:kreska pseudotaktowa	!	!	!
.	.	.	.	.	.	8f\J	.	.	.
=184	=184	=184	=184	=184	=184	=184	=184	=184	=184
!	!	!	!	!	!	!	!	!LO:TX:t=P:problem:kreska pseudotaktowa	!
2.c\	-n(us)	2.c\	-n(us)	2f\]	.	2.g\	.	.	.
.	.	.	.	2e\	-mi-	.	.	.	.
4B-\	.	4B-\	.	.	.	4g\	-mi-	.	.
=185	=185	=185	=185	=185	=185	=185	=185	=185	=185
!	!	!	!	!LO:TX:t=P:problem:kreska pseudotaktowa	!	!	!	!	!
2A\	.	2A\	.	1f	-n(us)	2,aZ\	-n(us)	2r	.
*	*	*	*	*	*Xij	*	*	*	*
!LO:TX:t=P:problem:kreska pseudotaktowa	!	!LO:TX:t=P:problem:kreska pseudotaktowa	!	!	!	!LO:TX:t=P:problem:kreska pseudotaktowa	!	!LO:TX:t=P:problem:kreska pseudotaktowa	!
2B-\	.	2B-\	.	.	.	2d/	Tu	2dd\	Tu
=186	=186	=186	=186	=186	=186	=186	=186	=186	=186
!LO:TX:t=P:problem:kreska pseudotaktowa	!	!LO:TX:t=P:problem:kreska pseudotaktowa	!	!	!	!	!	!	!
1,GZ	.	1,GZ	.	2r	.	[1b-	so-	2dd\	so-
.	.	.	.	2g\	Tu	.	.	2ee\	-l(us)
=187	=187	=187	=187	=187	=187	=187	=187	=187	=187
!	!	!	!	!	!	!	!	!LO:TX:t=P:problem:kreska pseudotaktowa	!
0r	.	0r	.	2g\	so-	2b-\]	.	0dd	al-
!	!	!	!	!LO:TX:t=P:problem:kreska pseudotaktowa	!	!	!	!	!
!	!	!	!	!LO:TX:a:t=P:problem:# below	!	!LO:TX:t=P:problem:kreska pseudotaktowa	!	!	!
.	.	.	.	2f#X\	-l(us)	2a\	-l(us)	.	.
!	!	!	!	!LO:LB:g=original	!	!	!	!	!
=188	=188	=188	=188	=188	=188	=188	=188	=188	=188
.	.	.	.	2g\	al-	2b-\	al-	.	.
.	.	.	.	[2fn\	-tiſ-	4a\	.	.	.
!	!	!	!	!	!	!LO:TX:t=P:problem:kreska pseudotaktowa	!	!	!
.	.	.	.	.	.	4g\	.	.	.
=189	=189	=189	=189	=189	=189	=189	=189	=189	=189
!LO:TX:t=P:problem:kreska pseudotaktowa	!	!LO:TX:t=P:problem:kreska pseudotaktowa	!	!	!	!	!	!	!
1r	.	1r	.	2f\]	.	2a\	.	2.cc\	-tiſ-
!	!	!	!	!LO:TX:t=P:problem:kreska pseudotaktowa	!	!LO:TX:t=P:problem:kreska pseudotaktowa	!	!	!
.	.	.	.	2c\	.	2g\	-tiſ-	.	.
!	!	!	!	!	!	!	!	!LO:TX:t=P:problem:kreska pseudotaktowa	!
.	.	.	.	.	.	.	.	4cc\	-si-
=190	=190	=190	=190	=190	=190	=190	=190	=190	=190
2r	.	2r	.	1d	.	2f#X\	-si-	2,aZ/	-m(us)
!	!	!	!	!	!	!LO:TX:t=P:problem:kreska pseudotaktowa	!	!	!
[2G/	Je-	[2G/	Je-	.	.	2,gZ\	-m(us)	[2b-/	Je-
=191	=191	=191	=191	=191	=191	=191	=191	=191	=191
2G/]	.	2G/]	.	2G/	.	[1d	Je-	2b-/]	.
!LO:TX:t=P:problem:kreska pseudotaktowa	!	!LO:TX:t=P:problem:kreska pseudotaktowa	!	!LO:TX:t=P:problem:kreska pseudotaktowa	!	!	!	!	!
2F#X/	-su	2F#X/	-su	2A/	-si-	.	.	[2a/	-su
=192	=192	=192	=192	=192	=192	=192	=192	=192	=192
1G	X-	1G	X-	1B-	-mus	2d/]	.	2a/]	.
!	!	!	!	!	!	!LO:TX:t=P:problem:kreska pseudotaktowa	!	!LO:TX:t=P:problem:kreska pseudotaktowa	!
.	.	.	.	.	.	2e\	-su	2g/	X-
=193	=193	=193	=193	=193	=193	=193	=193	=193	=193
2,DZ/	-te	2,DZ/	-te	2A/	.	2.f\	Chri-	2,aZ/	-te
*	*ij	*	*ij	*	*	*	*	*	*
[2D/	Je-	[2D/	Je-	[2f\	Je-	.	.	[2dd\	Je-
!	!	!	!	!	!	!LO:TX:t=P:problem:kreska pseudotaktowa	!	!	!
.	.	.	.	.	.	4g\	.	.	.
=194	=194	=194	=194	=194	=194	=194	=194	=194	=194
2D/]	.	2D/]	.	2f\]	.	0.a	.	2dd\]	.
!LO:TX:t=P:problem:kreska pseudotaktowa	!	!LO:TX:t=P:problem:kreska pseudotaktowa	!	!LO:TX:t=P:problem:kreska pseudotaktowa	!	!	!	!LO:TX:t=P:problem:kreska pseudotaktowa	!
2C#X/	-su	2C#X/	-su	2e\	-su	.	.	2ee\	-su
=195	=195	=195	=195	=195	=195	=195	=195	=195	=195
2.D/	X-	2.D/	X-	1d	X-	.	.	0ff	X-
4E/	.	4E/	.	.	.	.	.	.	.
=196	=196	=196	=196	=196	=196	=196	=196	=196	=196
!	!	!LO:TX:t=P:problem:kreska pseudotaktowa	!	!LO:TX:t=P:problem:kreska pseudotaktowa	!	!LO:TX:t=P:problem:kreska pseudotaktowa	!	!	!
1F	.	1F	.	1,cZ	-te	.	.	.	.
=197	=197	=197	=197	=197	=197	=197	=197	=197	=197
!	!	!	!	!	!	!LO:TX:t=P:problem:kreska pseudotaktowa	!	!LO:TX:t=P:problem:kreska pseudotaktowa	!
2,CZ/	-ste	2,CZ/	-ste	1c	Cum	1g	-ste.	1ee	-te
!LO:TX:t=P:problem:kreska pseudotaktowa	!	!	!	!	!	!	!	!	!
*	*Xij	*	*Xij	*	*	*	*	*	*
!	!	!LO:TX:t=P:problem:kreska pseudotaktowa	!	!	!	!	!	!	!
2c\	Cum	2c\	Cum	.	.	.	.	.	.
*	*	*custos:A	*	*	*	*	*	*	*
!	!	!LO:LB:g=original	!	!	!	!	!	!LO:LB:g=original	!
=198	=198	=198	=198	=198	=198	=198	=198	=198	=198
!	!	!	!	!	!	!	!	!LO:TX:t=P:problem:kreska pseudotaktowa	!
2A/	S(an)-	2A/	S(an)-	2e\	S(an)-	0r	.	1r	.
!LO:TX:t=P:problem:kreska pseudotaktowa	!	!LO:TX:t=P:problem:kreska pseudotaktowa	!	!LO:TX:t=P:problem:kreska pseudotaktowa	!	!	!	!	!
2G/	-cto	2G/	-cto	2g\	-cto	.	.	.	.
!LO:LB:g=original	!	!	!	!	!	!LO:PB:g=original	!	!	!
=199	=199	=199	=199	=199	=199	=199	=199	=199	=199
!	!	!	!	!	!	!LO:TX:t=P:problem:kreska pseudotaktowa	!	!	!
2.F/	Spi-	2.F/	Spi-	2.a\	Spi-	.	.	1cc	Cum
!	!	!LO:TX:t=P:problem:kreska pseudotaktowa	!	!	!	!	!	!	!
4G/	.	4G/	.	4g\	.	.	.	.	.
=200	=200	=200	=200	=200	=200	=200	=200	=200	=200
4A\	.	4A\	.	2f\	.	1c	Cum	2a/	San-
4B-\	.	4B-\	.	.	.	.	.	.	.
*	*	*	*	*lig	*	*	*	*	*
[2c\	.	[2c\	.	[2e\	.	.	.	[2g/	.
=201	=201	=201	=201	=201	=201	=201	=201	=201	=201
2c\]	.	2c\]	.	2e\]	.	2e\	S(an)-	4g/]	.
.	.	.	.	.	.	.	.	4f/	.
!LO:TX:t=P:problem:kreska pseudotaktowa	!	!LO:TX:t=P:problem:kreska pseudotaktowa	!	!	!	!	!	!	!
*	*	*	*	*Xlig	*	*	*	*	*
!	!	!	!	!	!	!LO:TX:t=P:problem:kreska pseudotaktowa	!	!LO:TX:t=P:problem:kreska pseudotaktowa	!
2B-\	-ri-	2B-\	-ri-	[2d\	.	2g\	-cto	2d/	-cto
=202	=202	=202	=202	=202	=202	=202	=202	=202	=202
*lig	*	*lig	*	*	*	*	*	*	*
1A	-tu	1A	-tu	2d\]	.	2a\	Spi-	2e/	Spi-
!	!	!	!	!	!	!	!	!LO:TX:t=P:problem:kreska pseudotaktowa	!
.	.	.	.	2c#X\	-ri-	2a\	-ri-	2e/	-ri-
=203	=203	=203	=203	=203	=203	=203	=203	=203	=203
*Xlig	*	*	*	*	*	*	*	*	*
!LO:TX:t=P:problem:kreska pseudotaktowa	!	!	!	!	!	!	!	!	!
*	*	*Xlig	*	*	*	*	*	*	*
!	!	!LO:TX:t=P:problem:kreska pseudotaktowa	!	!LO:TX:t=P:problem:kreska pseudotaktowa	!	!	!	!	!
1D	.	1D	.	1d	-tu	2,fZ\	-tu	2,dZ/	-tu
!	!	!	!	!	!	!LO:TX:t=P:problem:kreska pseudotaktowa	!	!LO:TX:t=P:problem:kreska pseudotaktowa	!
.	.	.	.	.	.	2d/	in	2f/	in
=204	=204	=204	=204	=204	=204	=204	=204	=204	=204
00r	.	00r	.	2r	.	2f\	glo-	2a/	glo-
!	!	!	!	!LO:TX:t=P:problem:kreska pseudotaktowa	!	!	!	!	!
.	.	.	.	2A/	in	2e\	-ri-	2cc\	-ri-
=205	=205	=205	=205	=205	=205	=205	=205	=205	=205
!	!	!	!	!	!	!	!	!LO:TX:t=P:problem:kreska pseudotaktowa	!
.	.	.	.	2.B-/	glo-	2d/	-a	1dd	-a
!	!	!	!	!	!	!LO:TX:t=P:problem:kreska pseudotaktowa	!	!	!
.	.	.	.	.	.	2f\	De-	.	.
.	.	.	.	4A/	-ri-	.	.	.	.
=206	=206	=206	=206	=206	=206	=206	=206	=206	=206
.	.	.	.	2G/	-a	2g\	-i	2b-\	DE-
.	.	.	.	2F/	De-	4a\	Pa-	[2a/	.
.	.	.	.	.	.	8g\L	.	.	.
.	.	.	.	.	.	8a\J	.	.	.
=207	=207	=207	=207	=207	=207	=207	=207	=207	=207
!	!	!	!	!LO:TX:t=P:problem:kreska pseudotaktowa	!	!	!	!	!
.	.	.	.	1G	-i	1b-	.	2a/]	.
.	.	.	.	.	.	.	.	[2g/	.
=208	=208	=208	=208	=208	=208	=208	=208	=208	=208
!	!	!	!	!	!	!LO:TX:t=P:problem:kreska pseudotaktowa	!	!	!
0r	.	0r	.	1d	Pa-	1a	-tris	2g/]	.
!	!	!	!	!	!	!	!	!LO:TX:t=P:problem:kreska pseudotaktowa	!
.	.	.	.	.	.	.	.	2f/	-I
=209	=209	=209	=209	=209	=209	=209	=209	=209	=209
!LO:TX:t=P:problem:kreska pseudotaktowa	!	!LO:TX:t=P:problem:kreska pseudotaktowa	!	!LO:TX:t=P:problem:kreska pseudotaktowa	!	!	!	!	!
.	.	.	.	1G	-tris	2.g\	A-	4g/	Pa-
.	.	.	.	.	.	.	.	4a/	.
.	.	.	.	.	.	.	.	4b-/	.
!	!	!	!	!	!	!	!	!LO:TX:t=P:problem:kreska pseudotaktowa	!
.	.	.	.	.	.	4a\	.	4cc/	.
!	!	!	!	!LO:PB:g=original	!	!	!	!	!
=210	=210	=210	=210	=210	=210	=210	=210	=210	=210
!	!	!	!	!	!	!	!	!LO:TX:t=P:problem:kreska pseudotaktowa	!
2r	.	2r	.	2r	.	2b-\	.	1dd	.
!LO:TX:t=P:problem:kreska pseudotaktowa	!	!LO:TX:t=P:problem:kreska pseudotaktowa	!	!LO:TX:t=P:problem:kreska pseudotaktowa	!	!	!	!	!
2D/	in	2D/	in	2F/	in	[2a\	.	.	.
=211	=211	=211	=211	=211	=211	=211	=211	=211	=211
!	!	!	!	!	!	!	!	!LO:TX:t=P:problem:kreska pseudotaktowa	!
2F/	glo-	2F/	glo-	2A/	glo-	2a\]	.	1cc	-tris
!	!	!	!	!	!	!LO:TX:t=P:problem:kreska pseudotaktowa	!	!	!
2E/	-ri-	2E/	-ri-	2c\	-ri-	2g\	.	.	.
=212	=212	=212	=212	=212	=212	=212	=212	=212	=212
!LO:TX:t=P:problem:kreska pseudotaktowa	!	!LO:TX:t=P:problem:kreska pseudotaktowa	!	!LO:TX:t=P:problem:kreska pseudotaktowa	!	!	!	!	!
1D	-a	1,DZ	-a	1d	-a	2f\	.	2r	.
!	!	!	!	!	!	!	!	!LO:TX:t=P:problem:kreska pseudotaktowa	!
.	.	.	.	.	.	2d/	.	2f/	in
=213	=213	=213	=213	=213	=213	=213	=213	=213	=213
2d\	De-	2d\	De-	0r	.	2f\	.	2a/	glo-
!	!	!LO:TX:t=P:problem:kreska pseudotaktowa	!	!	!	!	!	!LO:TX:t=P:problem:kreska pseudotaktowa	!
2A\	-i	2A\	-i	.	.	2e\	.	2cc\	-ri-
=214	=214	=214	=214	=214	=214	=214	=214	=214	=214
!	!	!	!	!LO:TX:t=P:problem:kreska pseudotaktowa	!	!	!	!LO:TX:t=P:problem:kreska pseudotaktowa	!
2.B-\	Pa-	1B-	Pa-	.	.	0d	-men	1dd	-a
4A/	.	.	.	.	.	.	.	.	.
!	!	!	!	!	!	!	!	!LO:LB:g=original	!
=215	=215	=215	=215	=215	=215	=215	=215	=215	=215
!	!	!	!	!	!	!LO:TX:t=P:problem:kreska pseudotaktowa	!	!	!
2,GZ/	-tris	2,GZ/	-tris	2r	.	.	.	2b-/	De-
!LO:TX:t=P:problem:kreska pseudotaktowa	!	!LO:TX:t=P:problem:kreska pseudotaktowa	!	!LO:TX:t=P:problem:kreska pseudotaktowa	!	!	!	!	!
*	*	*	*	*	*ij	*	*	*	*
2D/	in	2D/	in	2F/	in	.	.	[2a/	-i
=216	=216	=216	=216	=216	=216	=216	=216	=216	=216
2F/	glo-	2F/	glo-	2A/	glo-	2r	.	2a/]	.
!	!	!LO:TX:t=P:problem:kreska pseudotaktowa	!	!LO:TX:t=P:problem:kreska pseudotaktowa	!	!	!	!	!
2E/	-ri-	2E/	-ri-	2c\	-ri-	2G/	A-	[2g/	Pa-
=217	=217	=217	=217	=217	=217	=217	=217	=217	=217
!LO:TX:t=P:problem:kreska pseudotaktowa	!	!LO:TX:t=P:problem:kreska pseudotaktowa	!	!LO:TX:t=P:problem:kreska pseudotaktowa	!	!	!	!	!
1D	-a	1D	-a	1d	-a	2B-/	.	2g/]	.
*	*	*	*	*	*Xij	*	*	*	*
!	!	!	!	!	!	!LO:TX:t=P:problem:kreska pseudotaktowa	!	!LO:TX:t=P:problem:kreska pseudotaktowa	!
.	.	.	.	.	.	2A/	.	2f#X/	.
=218	=218	=218	=218	=218	=218	=218	=218	=218	=218
2G/	De-	2G/	De-	2B-/	De-	2,GZ/	-men	2g/	-tris
!	!	!LO:TX:t=P:problem:kreska pseudotaktowa	!	!	!	!	!	!LO:TX:t=P:problem:kreska pseudotaktowa	!
2F#X/	-i	2F#X/	-i	[2A/	-i	[2d/	De-	2a/	.
=219	=219	=219	=219	=219	=219	=219	=219	=219	=219
1G	Pa-	1G	Pa-	2A/]	.	2d/]	.	2.b-/	A-
!	!	!	!	!	!	!LO:TX:t=P:problem:kreska pseudotaktowa	!	!	!
.	.	.	.	[2G/	Pa-	2d/	-i	.	.
!	!	!	!	!	!	!	!	!LO:TX:t=P:problem:kreska pseudotaktowa	!
.	.	.	.	.	.	.	.	4a/	.
*	*	*	*	*	*	*custos:d	*	*	*
!	!	!	!	!	!	!LO:LB:g=original	!	!	!
=220	=220	=220	=220	=220	=220	=220	=220	=220	=220
!LO:TX:t=P:problem:kreska pseudotaktowa	!	!LO:TX:t=P:problem:kreska pseudotaktowa	!	!	!	!	!	!	!
1D	-tris	1D	-tris	2G/]	.	2.d/	Pa-	2b-/	.
!	!	!	!	!LO:TX:t=P:problem:kreska pseudotaktowa	!	!	!	!	!
.	.	.	.	2F/	-tris	.	.	[2a/	.
.	.	.	.	.	.	4c/	.	.	.
=221	=221	=221	=221	=221	=221	=221	=221	=221	=221
*lig	*	*	*	*	*	*	*	*	*
1E-X	A-	1E-X	A-	1G	.	2B-/	.	4a/]	.
.	.	.	.	.	.	.	.	4g/	.
!	!	!	!	!	!	!LO:TX:t=P:problem:kreska pseudotaktowa	!	!	!
.	.	.	.	.	.	2c/	-tris	[2g/	.
=222	=222	=222	=222	=222	=222	=222	=222	=222	=222
*Xlig	*	*	*	*	*	*	*	*	*
1D	.	1D	.	1A	A-	1d	A-	2g/]	.
!	!	!	!	!	!	!	!	!LO:TX:t=P:problem:kreska pseudotaktowa	!
.	.	.	.	.	.	.	.	2f#X/	.
=223	=223	=223	=223	=223	=223	=223	=223	=223	=223
0G;	-men	0G;	-men	0Bn;	-men.	0d;	-men.	0g;	-men.
=224	=224	=224	=224	=224	=224	=224	=224	=224	=224
==	==	==	==	==	==	==	==	==	==
*-	*-	*-	*-	*-	*-	*-	*-	*-	*-
!!!system-decoration: [(s1,s2,s3,s4,s5)]
!!!RDF**kern: Z = caesura
!!!ENC: Berenika Jozajtis
!!!END: 2024-05-08
!!!ENC: Leszek Kubiak
!!!END: 2024-06-16
